; generated by Slic3r 1.2.9 on 2020-08-18 at 20:30:01

; external perimeters extrusion width = 0.40mm
; perimeters extrusion width = 0.67mm
; infill extrusion width = 0.67mm
; solid infill extrusion width = 0.67mm
; top infill extrusion width = 0.67mm
; support material extrusion width = 0.40mm

M107
M190 S60 ; set bed temperature
M104 S205 ; set temperature
G28 ; home all axes
G1 Z5 F5000 ; lift nozzle

M109 S205 ; wait for temperature to be reached
G21 ; set units to millimeters
G90 ; use absolute coordinates
M82 ; use absolute distances for extrusion
G92 E0
G1 Z0.400 F7800.000
G1 E-1.50000 F2400.00000
G92 E0
G1 X74.827 Y75.720 F7800.000
G1 E1.50000 F2400.00000
G1 X76.583 Y74.220 E1.77422 F1800.000
G1 X78.743 Y73.405 E2.04845
G1 X80.000 Y73.286 E2.19842
G1 X120.000 Y73.286 E6.94902
G1 X122.275 Y73.683 E7.22325
G1 X124.280 Y74.827 E7.49747 F1800.000
G1 X125.780 Y76.583 E7.77170
G1 X126.595 Y78.743 E8.04592
G1 X126.714 Y80.000 E8.19589
G1 X126.714 Y120.000 E12.94649
G1 X126.317 Y122.275 E13.22072
G1 X125.173 Y124.280 E13.49494
G1 X123.417 Y125.780 E13.76917
G1 X121.257 Y126.595 E14.04339
G1 X120.000 Y126.714 E14.19336
G1 X80.000 Y126.714 E18.94396
G1 X77.725 Y126.317 E19.21819
G1 X75.720 Y125.173 E19.49241
G1 X74.220 Y123.417 E19.76663
G1 X73.405 Y121.257 E20.04086
G1 X73.286 Y120.000 E20.19083
G1 X73.286 Y80.000 E24.94143
G1 X73.683 Y77.725 E25.21566
G1 X74.797 Y75.772 E25.48275
G1 E23.98275 F2400.00000
G92 E0
G1 X118.172 Y118.172 F7800.000
G1 E1.50000 F2400.00000
G1 X81.828 Y118.172 E5.81632 F1800.000
G1 X81.828 Y81.828 E10.13265
G1 X118.172 Y81.828 E14.44897
G1 X118.172 Y118.112 E18.75817
G1 X118.886 Y118.886 F7800.000
G1 X81.114 Y118.886 E23.24412 F1800.000
G1 X81.114 Y81.114 E27.73008
G1 X118.886 Y81.114 E32.21604
G1 X118.886 Y118.826 E36.69487
G1 X119.600 Y119.600 F7800.000
G1 X80.400 Y119.600 E41.35046 F1800.000
G1 X80.400 Y80.400 E46.00606
G1 X119.600 Y80.400 E50.66165
G1 X119.600 Y119.540 E55.31012
G1 X119.254 Y119.400 F7800.000
G1 X117.736 Y82.607 F7800.000
G1 X117.393 Y82.264 E55.36820 F1800.000
G1 X116.375 Y82.264 E55.49012
G1 X117.736 Y83.625 E55.72062
G1 X117.736 Y84.643 E55.84254
G1 X115.357 Y82.264 E56.24547
G1 X114.338 Y82.264 E56.36739
G1 X117.736 Y85.662 E56.94274
G1 X117.736 Y86.680 E57.06466
G1 X113.320 Y82.264 E57.81243
G1 X112.302 Y82.264 E57.93436
G1 X117.736 Y87.698 E58.85455
G1 X117.736 Y88.716 E58.97647
G1 X111.284 Y82.264 E60.06909
G1 X110.265 Y82.264 E60.19101
G1 X117.736 Y89.735 E61.45606
G1 X117.736 Y90.753 E61.57798
G1 X109.247 Y82.264 E63.01544
G1 X108.229 Y82.264 E63.13736
G1 X117.736 Y91.771 E64.74725
G1 X117.736 Y92.789 E64.86917
G1 X107.211 Y82.264 E66.65149
G1 X106.193 Y82.264 E66.77341
G1 X117.736 Y93.807 E68.72814
G1 X117.736 Y94.826 E68.85006
G1 X105.174 Y82.264 E70.97722
G1 X104.156 Y82.264 E71.09914
G1 X117.736 Y95.844 E73.39872
G1 X117.736 Y96.862 E73.52064
G1 X103.138 Y82.264 E75.99265
G1 X102.120 Y82.264 E76.11457
G1 X117.736 Y97.880 E78.75900
G1 X117.736 Y98.899 E78.88092
G1 X101.101 Y82.264 E81.69777
G1 X100.083 Y82.264 E81.81969
G1 X117.736 Y99.917 E84.80896
G1 X117.736 Y100.935 E84.93088
G1 X99.065 Y82.264 E88.09258
G1 X98.047 Y82.264 E88.21450
G1 X117.736 Y101.953 E91.54862
G1 X117.736 Y102.972 E91.67054
G1 X97.028 Y82.264 E95.17708
G1 X96.010 Y82.264 E95.29901
G1 X117.736 Y103.990 E98.97797
G1 X117.736 Y105.008 E99.09989
G1 X94.992 Y82.264 E102.95128
G1 X93.974 Y82.264 E103.07320
G1 X117.736 Y106.026 E107.09701
G1 X117.736 Y107.045 E107.21894
G1 X92.955 Y82.264 E111.41517
G1 X91.937 Y82.264 E111.53709
G1 X117.736 Y108.063 E115.90575
G1 X117.736 Y109.081 E116.02767
G1 X90.919 Y82.264 E120.56875
G1 X89.901 Y82.264 E120.69067
G1 X117.736 Y110.099 E125.40418
G1 X117.736 Y111.118 E125.52610
G1 X88.882 Y82.264 E130.41203
G1 X87.864 Y82.264 E130.53395
G1 X117.736 Y112.136 E135.59230
G1 X117.736 Y113.154 E135.71422
G1 X86.846 Y82.264 E140.94499
G1 X85.828 Y82.264 E141.06691
G1 X117.736 Y114.172 E146.47011
G1 X117.736 Y115.191 E146.59203
G1 X84.809 Y82.264 E152.16765
G1 X83.791 Y82.264 E152.28957
G1 X117.736 Y116.209 E158.03761
G1 X117.736 Y117.227 E158.15954
G1 X82.773 Y82.264 E164.08000
G1 X82.264 Y82.773 E164.16621
G1 X117.227 Y117.736 E170.08668
G1 X116.209 Y117.736 E170.20860
G1 X82.264 Y83.791 E175.95664
G1 X82.264 Y84.809 E176.07856
G1 X115.191 Y117.736 E181.65417
G1 X114.172 Y117.736 E181.77609
G1 X82.264 Y85.828 E187.17929
G1 X82.264 Y86.846 E187.30121
G1 X113.154 Y117.736 E192.53198
G1 X112.136 Y117.736 E192.65390
G1 X82.264 Y87.864 E197.71225
G1 X82.264 Y88.882 E197.83417
G1 X111.118 Y117.736 E202.72009
G1 X110.099 Y117.736 E202.84201
G1 X82.264 Y89.901 E207.55551
G1 X82.264 Y90.919 E207.67743
G1 X109.081 Y117.736 E212.21851
G1 X108.063 Y117.736 E212.34043
G1 X82.264 Y91.937 E216.70908
G1 X82.264 Y92.955 E216.83101
G1 X107.045 Y117.736 E221.02724
G1 X106.026 Y117.736 E221.14916
G1 X82.264 Y93.974 E225.17297
G1 X82.264 Y94.992 E225.29489
G1 X105.008 Y117.736 E229.14627
G1 X103.990 Y117.736 E229.26819
G1 X82.264 Y96.010 E232.94715
G1 X82.264 Y97.028 E233.06908
G1 X102.972 Y117.736 E236.57561
G1 X101.953 Y117.736 E236.69754
G1 X82.264 Y98.047 E240.03165
G1 X82.264 Y99.065 E240.15357
G1 X100.935 Y117.736 E243.31526
G1 X99.917 Y117.736 E243.43719
G1 X82.264 Y100.083 E246.42646
G1 X82.264 Y101.101 E246.54838
G1 X98.899 Y117.736 E249.36522
G1 X97.880 Y117.736 E249.48714
G1 X82.264 Y102.120 E252.13157
G1 X82.264 Y103.138 E252.25349
G1 X96.862 Y117.736 E254.72549
G1 X95.844 Y117.736 E254.84741
G1 X82.264 Y104.156 E257.14699
G1 X82.264 Y105.174 E257.26891
G1 X94.826 Y117.736 E259.39606
G1 X93.807 Y117.736 E259.51798
G1 X82.264 Y106.193 E261.47271
G1 X82.264 Y107.211 E261.59463
G1 X92.789 Y117.736 E263.37694
G1 X91.771 Y117.736 E263.49886
G1 X82.264 Y108.229 E265.10875
G1 X82.264 Y109.247 E265.23067
G1 X90.753 Y117.736 E266.66813
G1 X89.735 Y117.736 E266.79005
G1 X82.264 Y110.266 E268.05509
G1 X82.264 Y111.284 E268.17701
G1 X88.716 Y117.736 E269.26962
G1 X87.698 Y117.736 E269.39155
G1 X82.264 Y112.302 E270.31174
G1 X82.264 Y113.320 E270.43366
G1 X86.680 Y117.736 E271.18143
G1 X85.662 Y117.736 E271.30335
G1 X82.264 Y114.338 E271.87869
G1 X82.264 Y115.357 E272.00062
G1 X84.643 Y117.736 E272.40354
G1 X83.625 Y117.736 E272.52546
G1 X82.264 Y116.375 E272.75596
G1 X82.264 Y117.393 E272.87788
G1 X82.607 Y117.736 E272.93596
G1 Z0.400 F7800.000
G1 Z0.600 F7800.000
G1 X118.679 Y118.679 F7800.000
G1 X81.321 Y118.679 E274.88772 F3600.000
G1 X81.321 Y81.321 E276.83948
G1 X118.679 Y81.321 E278.79124
G1 X118.679 Y118.619 E280.73987
G1 X119.307 Y119.307 F7800.000
G1 X80.693 Y119.307 E282.75728 F3600.000
G1 X80.693 Y80.693 E284.77470
G1 X119.307 Y80.693 E286.79211
G1 X119.307 Y119.247 E288.80639
G1 X119.800 Y119.800 F7800.000
G1 X80.200 Y119.800 E289.98217 F1800.000
G1 X80.200 Y80.200 E291.15794
G1 X119.800 Y80.200 E292.33372
G1 X119.800 Y119.740 E293.50771
G1 X119.454 Y119.600 F7800.000
G1 X117.992 Y118.298 F7800.000
G1 X118.298 Y117.992 E293.53055 F1200.000
G1 X118.298 Y117.096 E293.57776
G1 X117.096 Y118.298 E293.66736
G1 X116.200 Y118.298 E293.71457
G1 X118.298 Y116.200 E293.87093
G1 X118.298 Y115.303 E293.91814
G1 X115.303 Y118.298 E294.14127
G1 X114.407 Y118.298 E294.18848
G1 X118.298 Y114.407 E294.47836
G1 X118.298 Y113.511 E294.52557
G1 X113.511 Y118.298 E294.88222
G1 X112.615 Y118.298 E294.92943
G1 X118.298 Y112.615 E295.35284
G1 X118.298 Y111.719 E295.40004
G1 X111.719 Y118.298 E295.89021
G1 X110.823 Y118.298 E295.93742
G1 X118.298 Y110.823 E296.49435
G1 X118.298 Y109.927 E296.54156
G1 X109.927 Y118.298 E297.16525
G1 X109.031 Y118.298 E297.21246
G1 X118.298 Y109.031 E297.90292
G1 X118.298 Y108.135 E297.95012
G1 X108.135 Y118.298 E298.70734
G1 X107.239 Y118.298 E298.75455
G1 X118.298 Y107.239 E299.57853
G1 X118.298 Y106.343 E299.62573
G1 X106.343 Y118.298 E300.51647
G1 X105.447 Y118.298 E300.56368
G1 X118.298 Y105.447 E301.52118
G1 X118.298 Y104.551 E301.56839
G1 X104.551 Y118.298 E302.59265
G1 X103.655 Y118.298 E302.63986
G1 X118.298 Y103.655 E303.73088
G1 X118.298 Y102.759 E303.77809
G1 X102.759 Y118.298 E304.93587
G1 X101.863 Y118.298 E304.98308
G1 X118.298 Y101.863 E306.20762
G1 X118.298 Y100.967 E306.25483
G1 X100.967 Y118.298 E307.54614
G1 X100.071 Y118.298 E307.59335
G1 X118.298 Y100.071 E308.95141
G1 X118.298 Y99.175 E308.99862
G1 X99.175 Y118.298 E310.42345
G1 X98.279 Y118.298 E310.47066
G1 X118.298 Y98.279 E311.96225
G1 X118.298 Y97.383 E312.00946
G1 X97.383 Y118.298 E313.56781
G1 X96.487 Y118.298 E313.61502
G1 X118.298 Y96.487 E315.24013
G1 X118.298 Y95.590 E315.28734
G1 X95.590 Y118.298 E316.97921
G1 X94.694 Y118.298 E317.02642
G1 X118.298 Y94.694 E318.78506
G1 X118.298 Y93.798 E318.83226
G1 X93.798 Y118.298 E320.65766
G1 X92.902 Y118.298 E320.70487
G1 X118.298 Y92.902 E322.59703
G1 X118.298 Y92.006 E322.64423
G1 X92.006 Y118.298 E324.60315
G1 X91.110 Y118.298 E324.65036
G1 X118.298 Y91.110 E326.67604
G1 X118.298 Y90.214 E326.72325
G1 X90.214 Y118.298 E328.81569
G1 X89.318 Y118.298 E328.86290
G1 X118.298 Y89.318 E331.02211
G1 X118.298 Y88.422 E331.06931
G1 X88.422 Y118.298 E333.29528
G1 X87.526 Y118.298 E333.34249
G1 X118.298 Y87.526 E335.63521
G1 X118.298 Y86.630 E335.68242
G1 X86.630 Y118.298 E338.04191
G1 X85.734 Y118.298 E338.08912
G1 X118.298 Y85.734 E340.51536
G1 X118.298 Y84.838 E340.56257
G1 X84.838 Y118.298 E343.05558
G1 X83.942 Y118.298 E343.10279
G1 X118.298 Y83.942 E345.66256
G1 X118.298 Y83.046 E345.70977
G1 X83.046 Y118.298 E348.33630
G1 X82.150 Y118.298 E348.38351
G1 X118.298 Y82.150 E351.07681
G1 X117.850 Y81.702 E351.11019
G1 X81.702 Y117.850 E353.80348
G1 X81.702 Y116.954 E353.85068
G1 X116.954 Y81.702 E356.47721
G1 X116.058 Y81.702 E356.52442
G1 X81.702 Y116.058 E359.08419
G1 X81.702 Y115.162 E359.13139
G1 X115.162 Y81.702 E361.62440
G1 X114.266 Y81.702 E361.67161
G1 X81.702 Y114.266 E364.09785
G1 X81.702 Y113.370 E364.14506
G1 X113.370 Y81.702 E366.50454
G1 X112.474 Y81.702 E366.55175
G1 X81.702 Y112.474 E368.84447
G1 X81.702 Y111.578 E368.89168
G1 X111.578 Y81.702 E371.11764
G1 X110.682 Y81.702 E371.16484
G1 X81.702 Y110.682 E373.32404
G1 X81.702 Y109.786 E373.37125
G1 X109.786 Y81.702 E375.46369
G1 X108.890 Y81.702 E375.51089
G1 X81.702 Y108.890 E377.53657
G1 X81.702 Y107.994 E377.58378
G1 X107.994 Y81.702 E379.54269
G1 X107.098 Y81.702 E379.58990
G1 X81.702 Y107.098 E381.48205
G1 X81.702 Y106.202 E381.52926
G1 X106.202 Y81.702 E383.35465
G1 X105.306 Y81.702 E383.40186
G1 X81.702 Y105.306 E385.16049
G1 X81.702 Y104.409 E385.20770
G1 X104.409 Y81.702 E386.89957
G1 X103.513 Y81.702 E386.94678
G1 X81.702 Y103.513 E388.57189
G1 X81.702 Y102.617 E388.61909
G1 X102.617 Y81.702 E390.17744
G1 X101.721 Y81.702 E390.22465
G1 X81.702 Y101.721 E391.71623
G1 X81.702 Y100.825 E391.76344
G1 X100.825 Y81.702 E393.18827
G1 X99.929 Y81.702 E393.23547
G1 X81.702 Y99.929 E394.59354
G1 X81.702 Y99.033 E394.64074
G1 X99.033 Y81.702 E395.93204
G1 X98.137 Y81.702 E395.97925
G1 X81.702 Y98.137 E397.20379
G1 X81.702 Y97.241 E397.25100
G1 X97.241 Y81.702 E398.40878
G1 X96.345 Y81.702 E398.45599
G1 X81.702 Y96.345 E399.54700
G1 X81.702 Y95.449 E399.59421
G1 X95.449 Y81.702 E400.61847
G1 X94.553 Y81.702 E400.66568
G1 X81.702 Y94.553 E401.62317
G1 X81.702 Y93.657 E401.67038
G1 X93.657 Y81.702 E402.56111
G1 X92.761 Y81.702 E402.60832
G1 X81.702 Y92.761 E403.43229
G1 X81.702 Y91.865 E403.47950
G1 X91.865 Y81.702 E404.23671
G1 X90.969 Y81.702 E404.28392
G1 X81.702 Y90.969 E404.97437
G1 X81.702 Y90.073 E405.02158
G1 X90.073 Y81.702 E405.64527
G1 X89.177 Y81.702 E405.69247
G1 X81.702 Y89.177 E406.24940
G1 X81.702 Y88.281 E406.29661
G1 X88.281 Y81.702 E406.78677
G1 X87.385 Y81.702 E406.83398
G1 X81.702 Y87.385 E407.25739
G1 X81.702 Y86.489 E407.30459
G1 X86.489 Y81.702 E407.66124
G1 X85.592 Y81.702 E407.70844
G1 X81.702 Y85.592 E407.99833
G1 X81.702 Y84.696 E408.04553
G1 X84.696 Y81.702 E408.26865
G1 X83.800 Y81.702 E408.31586
G1 X81.702 Y83.800 E408.47222
G1 X81.702 Y82.904 E408.51943
G1 X82.904 Y81.702 E408.60903
G1 X82.008 Y81.702 E408.65623
G1 X81.702 Y82.008 E408.67907
G1 Z0.800 F7800.000
G1 X118.679 Y118.679 F7800.000
G1 X81.321 Y118.679 E410.63083 F3600.000
G1 X81.321 Y81.321 E412.58260
G1 X118.679 Y81.321 E414.53436
G1 X118.679 Y118.619 E416.48299
G1 X119.307 Y119.307 F7800.000
G1 X80.693 Y119.307 E418.50040 F3600.000
G1 X80.693 Y80.693 E420.51781
G1 X119.307 Y80.693 E422.53523
G1 X119.307 Y119.247 E424.54951
G1 X119.800 Y119.800 F7800.000
G1 X80.200 Y119.800 E425.72528 F1800.000
G1 X80.200 Y80.200 E426.90106
G1 X119.800 Y80.200 E428.07683
G1 X119.800 Y119.740 E429.25083
G1 X119.454 Y119.600 F7800.000
G1 X118.298 Y82.463 F7800.000
G1 X117.537 Y81.702 E429.30708 F4800.000
G1 X114.575 Y81.702 E429.46182
G1 X118.298 Y85.425 E429.73691
G1 X118.298 Y88.387 E429.89166
G1 X111.613 Y81.702 E430.38559
G1 X108.651 Y81.702 E430.54034
G1 X118.298 Y91.349 E431.25312
G1 X118.298 Y94.311 E431.40786
G1 X105.689 Y81.702 E432.33948
G1 X102.727 Y81.702 E432.49423
G1 X118.298 Y97.273 E433.64469
G1 X118.298 Y100.235 E433.79944
G1 X99.765 Y81.702 E435.16874
G1 X96.803 Y81.702 E435.32349
G1 X118.298 Y103.197 E436.91164
G1 X118.298 Y106.158 E437.06638
G1 X93.842 Y81.702 E438.87338
G1 X90.880 Y81.702 E439.02812
G1 X118.298 Y109.120 E441.05396
G1 X118.298 Y112.082 E441.20870
G1 X87.918 Y81.702 E443.45338
G1 X84.956 Y81.702 E443.60813
G1 X118.298 Y115.044 E446.07165
G1 X118.298 Y118.006 E446.22639
G1 X81.994 Y81.702 E448.90876
G1 X81.702 Y84.372 E449.04908
G1 X115.628 Y118.298 E451.55575
G1 X112.666 Y118.298 E451.71050
G1 X81.702 Y87.334 E453.99833
G1 X81.702 Y90.296 E454.15308
G1 X109.704 Y118.298 E456.22206
G1 X106.743 Y118.298 E456.37681
G1 X81.702 Y93.257 E458.22696
G1 X81.702 Y96.219 E458.38170
G1 X103.781 Y118.298 E460.01300
G1 X100.819 Y118.298 E460.16775
G1 X81.702 Y99.181 E461.58021
G1 X81.702 Y102.143 E461.73495
G1 X97.857 Y118.298 E462.92857
G1 X94.895 Y118.298 E463.08332
G1 X81.702 Y105.105 E464.05809
G1 X81.702 Y108.067 E464.21284
G1 X91.933 Y118.298 E464.96877
G1 X88.971 Y118.298 E465.12351
G1 X81.702 Y111.029 E465.66060
G1 X81.702 Y113.991 E465.81535
G1 X86.009 Y118.298 E466.13359
G1 X83.047 Y118.298 E466.28834
G1 X81.702 Y116.953 E466.38774
M106 S211.65
G1 Z1.000 F7800.000
G1 X118.679 Y118.679 F7800.000
G1 X81.321 Y118.679 E468.33950 F3600.000
G1 X81.321 Y81.321 E470.29126
G1 X118.679 Y81.321 E472.24303
G1 X118.679 Y118.619 E474.19165
G1 X119.307 Y119.307 F7800.000
G1 X80.693 Y119.307 E476.20907 F3600.000
G1 X80.693 Y80.693 E478.22648
G1 X119.307 Y80.693 E480.24390
G1 X119.307 Y119.247 E482.25818
G1 X119.800 Y119.800 F7800.000
G1 X80.200 Y119.800 E483.43395 F1800.000
G1 X80.200 Y80.200 E484.60973
G1 X119.800 Y80.200 E485.78550
G1 X119.800 Y119.740 E486.95949
G1 X119.454 Y119.600 F7800.000
G1 X117.537 Y118.298 F7800.000
G1 X118.298 Y117.537 E487.01574 F4800.000
G1 X118.298 Y114.575 E487.17049
G1 X114.575 Y118.298 E487.44558
G1 X111.613 Y118.298 E487.60033
G1 X118.298 Y111.613 E488.09426
G1 X118.298 Y108.651 E488.24901
G1 X108.651 Y118.298 E488.96179
G1 X105.689 Y118.298 E489.11653
G1 X118.298 Y105.689 E490.04815
G1 X118.298 Y102.727 E490.20290
G1 X102.727 Y118.298 E491.35336
G1 X99.765 Y118.298 E491.50811
G1 X118.298 Y99.765 E492.87741
G1 X118.298 Y96.803 E493.03216
G1 X96.803 Y118.298 E494.62031
G1 X93.842 Y118.298 E494.77505
G1 X118.298 Y93.842 E496.58205
G1 X118.298 Y90.880 E496.73679
G1 X90.880 Y118.298 E498.76263
G1 X87.918 Y118.298 E498.91737
G1 X118.298 Y87.918 E501.16205
G1 X118.298 Y84.956 E501.31680
G1 X84.956 Y118.298 E503.78032
G1 X81.994 Y118.298 E503.93506
G1 X118.298 Y81.994 E506.61743
G1 X115.628 Y81.702 E506.75775
G1 X81.702 Y115.628 E509.26442
G1 X81.702 Y112.666 E509.41917
G1 X112.666 Y81.702 E511.70700
G1 X109.704 Y81.702 E511.86174
G1 X81.702 Y109.704 E513.93073
G1 X81.702 Y106.743 E514.08548
G1 X106.743 Y81.702 E515.93562
G1 X103.781 Y81.702 E516.09037
G1 X81.702 Y103.781 E517.72167
G1 X81.702 Y100.819 E517.87642
G1 X100.819 Y81.702 E519.28888
G1 X97.857 Y81.702 E519.44362
G1 X81.702 Y97.857 E520.63724
G1 X81.702 Y94.895 E520.79199
G1 X94.895 Y81.702 E521.76676
G1 X91.933 Y81.702 E521.92150
G1 X81.702 Y91.933 E522.67744
