; generated by Slic3r 1.2.9 on 2020-08-18 at 20:30:45

; external perimeters extrusion width = 0.40mm
; perimeters extrusion width = 0.67mm
; infill extrusion width = 0.67mm
; solid infill extrusion width = 0.67mm
; top infill extrusion width = 0.67mm
; support material extrusion width = 0.40mm

M107
M190 S60 ; set bed temperature
M104 S205 ; set temperature
G28 ; home all axes
G1 Z5 F5000 ; lift nozzle

M109 S205 ; wait for temperature to be reached
G21 ; set units to millimeters
G90 ; use absolute coordinates
M82 ; use absolute distances for extrusion
G92 E0
G1 Z0.400 F7800.000
G1 E-1.50000 F2400.00000
G92 E0
G1 X85.439 Y85.440 F7800.000
G1 E1.50000 F2400.00000
G1 X86.059 Y84.820 E1.60411 F1800.000
G1 X86.163 Y84.740 E1.61961
G1 X87.681 Y83.864 E1.82777
G1 X87.801 Y83.814 E1.84327
G1 X89.493 Y83.360 E2.05136
G1 X89.624 Y83.343 E2.06696
G1 X90.500 Y83.286 E2.17125
G1 X109.500 Y83.286 E4.42779
G1 X110.376 Y83.343 E4.53208
G1 X110.509 Y83.361 E4.54794 F1800.000
G1 X112.199 Y83.814 E4.75576
G1 X112.319 Y83.864 E4.77126
G1 X113.837 Y84.740 E4.97943
G1 X113.941 Y84.820 E4.99494
G1 X115.180 Y86.059 E5.20310
G1 X115.260 Y86.163 E5.21860
G1 X116.136 Y87.681 E5.42676
G1 X116.186 Y87.801 E5.44227
G1 X116.640 Y89.494 E5.65043
G1 X116.714 Y90.500 E5.77021
G1 X116.714 Y109.500 E8.02675
G1 X116.640 Y110.506 E8.14653
G1 X116.186 Y112.199 E8.35469
G1 X116.136 Y112.319 E8.37020
G1 X115.260 Y113.837 E8.57837
G1 X115.180 Y113.941 E8.59387
G1 X113.941 Y115.180 E8.80202
G1 X113.837 Y115.260 E8.81752
G1 X112.319 Y116.136 E9.02570
G1 X112.199 Y116.186 E9.04121
G1 X110.506 Y116.640 E9.24937
G1 X110.376 Y116.657 E9.26487
G1 X109.500 Y116.714 E9.36917
G1 X90.500 Y116.714 E11.62571
G1 X89.624 Y116.657 E11.73001
G1 X89.494 Y116.640 E11.74551
G1 X87.801 Y116.186 E11.95368
G1 X87.681 Y116.136 E11.96919
G1 X86.163 Y115.260 E12.17735
G1 X86.059 Y115.180 E12.19285
G1 X84.820 Y113.941 E12.40102
G1 X84.740 Y113.837 E12.41655
G1 X83.864 Y112.319 E12.62469
G1 X83.814 Y112.199 E12.64019
G1 X83.360 Y110.506 E12.84834
G1 X83.343 Y110.372 E12.86434
G1 X83.286 Y109.500 E12.96816
G1 X83.286 Y90.500 E15.22470
G1 X83.360 Y89.494 E15.34448
G1 X83.813 Y87.803 E15.55246
G1 X83.864 Y87.681 E15.56815
G1 X84.739 Y86.164 E15.77615
G1 X84.820 Y86.059 E15.79182
G1 X85.397 Y85.482 E15.88875
G1 E14.38875 F2400.00000
G92 E0
G1 X90.192 Y90.265 F7800.000
G1 E1.50000 F2400.00000
G1 X90.514 Y90.213 E1.53880 F1800.000
G1 X109.486 Y90.213 E3.79201
G1 X109.615 Y90.228 E3.80747
G1 X109.789 Y90.424 E3.83851
G1 X109.794 Y90.513 E3.84918
G1 X109.794 Y109.487 E6.10252
G1 X109.776 Y109.771 E6.13643
G1 Z0.400 F7800.000
G1 Z0.600 F7800.000
G1 E4.63643 F2400.00000
G92 E0
G1 X90.202 Y90.415 F7800.000
G1 E1.50000 F2400.00000
G1 X90.227 Y90.342 E1.50400 F935.319
G1 X90.278 Y90.278 E1.50829
G1 X90.348 Y90.237 E1.51253
G1 X90.514 Y90.213 E1.52129
G1 X109.486 Y90.213 E2.51249
G1 X109.652 Y90.240 E2.52125
G1 X109.717 Y90.283 E2.52534
G1 X109.765 Y90.347 E2.52951
G1 X109.794 Y90.513 E2.53834
G1 X109.794 Y109.487 E3.52958
G1 X109.771 Y109.657 E3.53855
G1 X109.729 Y109.729 E3.54294
G1 X109.663 Y109.782 E3.54737
G1 X109.488 Y109.813 E3.55667
G1 X90.512 Y109.813 E4.54804
G1 X90.335 Y109.786 E4.55742
G1 X90.264 Y109.736 E4.56194
G1 X90.219 Y109.662 E4.56645
G1 X90.194 Y109.487 E4.57569
G1 X90.202 Y90.415 E5.57214
G1 Z0.800 F7800.000
G1 X90.202 Y90.412 F7800.000
G1 X90.227 Y90.342 E5.57602 F935.315
G1 X90.278 Y90.278 E5.58032
G1 X90.348 Y90.237 E5.58456
G1 X90.514 Y90.213 E5.59332
G1 X109.486 Y90.213 E6.58451
G1 X109.652 Y90.240 E6.59330
G1 X109.717 Y90.283 E6.59736
G1 X109.765 Y90.347 E6.60154
G1 X109.794 Y90.513 E6.61036
G1 X109.794 Y109.487 E7.60160
G1 X109.773 Y109.649 E7.61018
G1 X109.728 Y109.730 E7.61503
G1 X109.663 Y109.782 E7.61938
G1 X109.488 Y109.813 E7.62868
G1 X90.512 Y109.813 E8.62005
G1 X90.335 Y109.786 E8.62943
G1 X90.264 Y109.736 E8.63395
G1 X90.219 Y109.662 E8.63846
G1 X90.194 Y109.487 E8.64770
G1 X90.202 Y90.412 E9.64426
M106 S255
G1 Z1.000 F7800.000
G1 X90.201 Y90.420 F7800.000
G1 X90.227 Y90.342 E9.64853 F935.319
G1 X90.278 Y90.278 E9.65283
G1 X90.348 Y90.237 E9.65707
G1 X90.514 Y90.213 E9.66583
G1 X109.486 Y90.213 E10.65702
G1 X109.652 Y90.240 E10.66583
G1 X109.717 Y90.283 E10.66987
G1 X109.765 Y90.347 E10.67404
G1 X109.794 Y90.513 E10.68287
G1 X109.794 Y109.487 E11.67411
G1 X109.771 Y109.657 E11.68308
G1 X109.729 Y109.729 E11.68747
G1 X109.663 Y109.782 E11.69190
G1 X109.488 Y109.813 E11.70120
G1 X90.512 Y109.813 E12.69257
G1 X90.335 Y109.786 E12.70195
G1 X90.264 Y109.736 E12.70647
G1 X90.219 Y109.662 E12.71098
G1 X90.194 Y109.487 E12.72022
G1 X90.201 Y90.420 E13.71640
G1 Z1.200 F7800.000
G1 X90.203 Y90.408 F7800.000
G1 X90.227 Y90.342 E13.72006 F935.312
G1 X90.278 Y90.278 E13.72435
G1 X90.348 Y90.237 E13.72859
G1 X90.514 Y90.213 E13.73735
G1 X109.486 Y90.213 E14.72854
G1 X109.653 Y90.240 E14.73737
G1 X109.717 Y90.283 E14.74139
G1 X109.765 Y90.347 E14.74557
G1 X109.794 Y90.513 E14.75439
G1 X109.794 Y109.487 E15.74563
G1 X109.771 Y109.657 E15.75461
G1 X109.729 Y109.729 E15.75899
G1 X109.663 Y109.782 E15.76343
G1 X109.488 Y109.813 E15.77272
G1 X90.512 Y109.813 E16.76410
G1 X90.335 Y109.786 E16.77347
G1 X90.266 Y109.737 E16.77788
G1 X90.215 Y109.651 E16.78312
G1 X90.194 Y109.487 E16.79172
G1 X90.203 Y90.408 E17.78850
G1 Z1.400 F7800.000
G1 X90.204 Y90.406 F7800.000
G1 X90.278 Y90.278 E17.79623 F935.290
G1 X90.348 Y90.237 E17.80047
G1 X90.514 Y90.213 E17.80923
G1 X109.486 Y90.213 E18.80043
G1 X109.653 Y90.241 E18.80928
G1 X109.717 Y90.283 E18.81327
G1 X109.765 Y90.347 E18.81745
G1 X109.794 Y90.513 E18.82627
G1 X109.794 Y109.487 E19.81752
G1 X109.771 Y109.657 E19.82649
G1 X109.729 Y109.729 E19.83087
G1 X109.663 Y109.782 E19.83531
G1 X109.488 Y109.813 E19.84460
G1 X90.512 Y109.813 E20.83598
G1 X90.335 Y109.786 E20.84535
G1 X90.264 Y109.736 E20.84988
G1 X90.219 Y109.662 E20.85438
G1 X90.194 Y109.487 E20.86362
G1 X90.204 Y90.406 E21.86051
G1 Z1.600 F7800.000
G1 X90.204 Y90.404 F7800.000
G1 X90.278 Y90.278 E21.86813 F935.284
G1 X90.348 Y90.237 E21.87237
G1 X90.514 Y90.213 E21.88113
G1 X109.486 Y90.213 E22.87232
G1 X109.654 Y90.241 E22.88119
G1 X109.717 Y90.283 E22.88517
G1 X109.765 Y90.347 E22.88934
G1 X109.794 Y90.513 E22.89817
G1 X109.794 Y109.487 E23.88941
G1 X109.771 Y109.657 E23.89838
G1 X109.729 Y109.729 E23.90277
G1 X109.663 Y109.782 E23.90720
G1 X109.488 Y109.813 E23.91650
G1 X90.512 Y109.813 E24.90787
G1 X90.335 Y109.786 E24.91725
G1 X90.267 Y109.737 E24.92163
G1 X90.214 Y109.646 E24.92713
G1 X90.194 Y109.487 E24.93549
G1 X90.204 Y90.404 E25.93250
G1 Z1.800 F7800.000
G1 X90.205 Y90.402 F7800.000
G1 X90.278 Y90.278 E25.94000 F935.283
G1 X90.348 Y90.237 E25.94424
G1 X90.514 Y90.213 E25.95300
G1 X109.486 Y90.213 E26.94420
G1 X109.654 Y90.241 E26.95309
G1 X109.717 Y90.283 E26.95704
G1 X109.765 Y90.347 E26.96122
G1 X109.794 Y90.513 E26.97004
G1 X109.794 Y109.487 E27.96128
G1 X109.771 Y109.657 E27.97026
G1 X109.729 Y109.729 E27.97464
G1 X109.663 Y109.782 E27.97908
G1 X109.488 Y109.813 E27.98837
G1 X90.512 Y109.813 E28.97975
G1 X90.335 Y109.786 E28.98912
G1 X90.267 Y109.738 E28.99348
G1 X90.214 Y109.644 E28.99912
G1 X90.194 Y109.487 E29.00736
G1 X90.205 Y90.402 E30.00448
G1 Z2.000 F7800.000
G1 X90.206 Y90.400 F7800.000
G1 X90.278 Y90.278 E30.01187 F935.289
G1 X90.348 Y90.237 E30.01611
G1 X90.514 Y90.213 E30.02487
G1 X109.486 Y90.213 E31.01606
G1 X109.654 Y90.241 E31.02497
G1 X109.717 Y90.283 E31.02891
G1 X109.765 Y90.347 E31.03308
G1 X109.794 Y90.513 E31.04191
G1 X109.794 Y109.487 E32.03315
G1 X109.771 Y109.657 E32.04212
G1 X109.729 Y109.729 E32.04651
G1 X109.663 Y109.782 E32.05094
G1 X109.488 Y109.813 E32.06024
G1 X90.512 Y109.813 E33.05161
G1 X90.335 Y109.786 E33.06099
G1 X90.264 Y109.736 E33.06551
G1 X90.219 Y109.662 E33.07002
G1 X90.194 Y109.487 E33.07925
G1 X90.206 Y90.400 E34.07649
G1 Z2.200 F7800.000
G1 X90.206 Y90.397 F7800.000
G1 X90.278 Y90.278 E34.08376 F935.289
G1 X90.348 Y90.237 E34.08801
G1 X90.514 Y90.213 E34.09677
G1 X109.486 Y90.213 E35.08796
G1 X109.655 Y90.241 E35.09688
G1 X109.717 Y90.283 E35.10080
G1 X109.765 Y90.347 E35.10498
G1 X109.794 Y90.513 E35.11380
G1 X109.794 Y109.487 E36.10504
G1 X109.771 Y109.657 E36.11402
G1 X109.729 Y109.729 E36.11840
G1 X109.663 Y109.782 E36.12284
G1 X109.488 Y109.813 E36.13213
G1 X90.512 Y109.813 E37.12351
G1 X90.335 Y109.786 E37.13288
G1 X90.264 Y109.736 E37.13741
G1 X90.219 Y109.662 E37.14191
G1 X90.194 Y109.487 E37.15115
G1 X90.206 Y90.397 E38.14849
G1 Z2.400 F7800.000
G1 X90.201 Y90.420 F7800.000
G1 X90.227 Y90.342 E38.15277 F935.308
G1 X90.278 Y90.278 E38.15706
G1 X90.348 Y90.237 E38.16130
G1 X90.514 Y90.213 E38.17006
G1 X109.486 Y90.213 E39.16126
G1 X109.655 Y90.241 E39.17020
G1 X109.717 Y90.283 E39.17410
G1 X109.765 Y90.347 E39.17827
G1 X109.794 Y90.513 E39.18710
G1 X109.794 Y109.487 E40.17834
G1 X109.771 Y109.657 E40.18731
G1 X109.729 Y109.729 E40.19170
G1 X109.663 Y109.782 E40.19613
G1 X109.488 Y109.813 E40.20543
G1 X90.512 Y109.813 E41.19680
G1 X90.335 Y109.786 E41.20618
G1 X90.267 Y109.738 E41.21049
G1 X90.212 Y109.637 E41.21653
G1 X90.194 Y109.487 E41.22440
G1 X90.201 Y90.420 E42.22058
G1 Z2.600 F7800.000
G1 X90.207 Y90.393 F7800.000
G1 X90.278 Y90.278 E42.22763 F935.300
G1 X90.348 Y90.237 E42.23187
G1 X90.514 Y90.213 E42.24063
G1 X109.486 Y90.213 E43.23183
G1 X109.651 Y90.239 E43.24053
G1 X109.717 Y90.283 E43.24468
G1 X109.765 Y90.347 E43.24885
G1 X109.794 Y90.513 E43.25768
G1 X109.794 Y109.487 E44.24892
G1 X109.771 Y109.657 E44.25789
G1 X109.729 Y109.729 E44.26228
G1 X109.663 Y109.782 E44.26671
G1 X109.488 Y109.813 E44.27601
G1 X90.512 Y109.813 E45.26738
G1 X90.335 Y109.786 E45.27676
G1 X90.264 Y109.736 E45.28128
G1 X90.219 Y109.662 E45.28579
G1 X90.194 Y109.487 E45.29503
G1 X90.194 Y90.518 E46.28608
G1 X90.207 Y90.393 E46.29264
G1 Z2.800 F7800.000
G1 X90.208 Y90.391 F7800.000
G1 X90.278 Y90.278 E46.29957 F935.287
G1 X90.348 Y90.237 E46.30381
G1 X90.514 Y90.213 E46.31257
G1 X109.559 Y90.219 E47.30758
G1 X109.655 Y90.242 E47.31275
G1 X109.717 Y90.283 E47.31661
G1 X109.765 Y90.347 E47.32079
G1 X109.794 Y90.513 E47.32961
G1 X109.794 Y109.487 E48.32086
G1 X109.771 Y109.657 E48.32983
G1 X109.729 Y109.729 E48.33421
G1 X109.663 Y109.782 E48.33865
G1 X109.488 Y109.813 E48.34794
G1 X90.512 Y109.813 E49.33932
G1 X90.335 Y109.786 E49.34869
G1 X90.268 Y109.739 E49.35298
G1 X90.211 Y109.632 E49.35928
G1 X90.194 Y109.487 E49.36691
G1 X90.194 Y90.518 E50.35795
G1 X90.208 Y90.391 E50.36463
G1 Z3.000 F7800.000
G1 X90.201 Y90.420 F7800.000
G1 X90.227 Y90.342 E50.36891 F935.306
G1 X90.278 Y90.278 E50.37320
G1 X90.348 Y90.237 E50.37744
G1 X90.514 Y90.213 E50.38620
G1 X109.557 Y90.219 E51.38110
G1 X109.656 Y90.242 E51.38640
G1 X109.717 Y90.283 E51.39024
G1 X109.765 Y90.347 E51.39442
G1 X109.794 Y90.513 E51.40324
G1 X109.794 Y109.487 E52.39449
G1 X109.771 Y109.657 E52.40346
G1 X109.729 Y109.729 E52.40784
G1 X109.663 Y109.782 E52.41228
G1 X109.488 Y109.813 E52.42157
G1 X90.512 Y109.813 E53.41295
G1 X90.335 Y109.786 E53.42232
G1 X90.268 Y109.739 E53.42659
G1 X90.210 Y109.630 E53.43303
G1 X90.194 Y109.487 E53.44053
G1 X90.201 Y90.420 E54.43671
G1 Z3.200 F7800.000
G1 X90.227 Y90.342 E54.44099 F935.319
G1 X90.278 Y90.278 E54.44528
G1 X90.348 Y90.237 E54.44952
G1 X90.514 Y90.213 E54.45828
G1 X109.555 Y90.219 E55.45306
G1 X109.656 Y90.242 E55.45849
G1 X109.717 Y90.283 E55.46232
G1 X109.765 Y90.347 E55.46650
G1 X109.794 Y90.513 E55.47532
G1 X109.794 Y109.487 E56.46657
G1 X109.771 Y109.657 E56.47554
G1 X109.729 Y109.729 E56.47992
G1 X109.663 Y109.782 E56.48436
G1 X109.488 Y109.813 E56.49365
G1 X90.512 Y109.813 E57.48503
G1 X90.335 Y109.786 E57.49440
G1 X90.264 Y109.736 E57.49893
G1 X90.219 Y109.662 E57.50343
G1 X90.194 Y109.487 E57.51267
G1 X90.201 Y90.420 E58.50885
G1 Z3.400 F7800.000
G1 X90.210 Y90.384 F7800.000
G1 X90.274 Y90.283 E58.51513 F935.273
G1 X90.384 Y90.227 E58.52157
G1 X90.514 Y90.213 E58.52838
G1 X109.552 Y90.219 E59.52304
G1 X109.656 Y90.242 E59.52861
G1 X109.717 Y90.283 E59.53243
G1 X109.765 Y90.347 E59.53660
G1 X109.794 Y90.513 E59.54542
G1 X109.794 Y109.487 E60.53667
G1 X109.771 Y109.657 E60.54564
G1 X109.729 Y109.729 E60.55002
G1 X109.663 Y109.782 E60.55446
G1 X109.488 Y109.813 E60.56375
G1 X90.512 Y109.813 E61.55513
G1 X90.335 Y109.786 E61.56450
G1 X90.268 Y109.739 E61.56875
G1 X90.209 Y109.625 E61.57546
G1 X90.194 Y109.487 E61.58270
G1 X90.194 Y90.519 E62.57370
G1 X90.210 Y90.384 E62.58078
G1 Z3.600 F7800.000
G1 X90.211 Y90.382 F7800.000
G1 X90.274 Y90.283 E62.58693 F935.271
G1 X90.387 Y90.227 E62.59351
G1 X90.514 Y90.213 E62.60020
G1 X109.550 Y90.219 E63.59474
G1 X109.656 Y90.242 E63.60044
G1 X109.717 Y90.283 E63.60424
G1 X109.765 Y90.347 E63.60841
G1 X109.794 Y90.513 E63.61724
G1 X109.794 Y109.487 E64.60848
G1 X109.771 Y109.657 E64.61745
G1 X109.729 Y109.729 E64.62184
G1 X109.663 Y109.782 E64.62627
G1 X109.488 Y109.813 E64.63557
G1 X90.512 Y109.813 E65.62694
G1 X90.335 Y109.786 E65.63632
G1 X90.269 Y109.739 E65.64055
G1 X90.209 Y109.623 E65.64739
G1 X90.194 Y109.487 E65.65451
G1 X90.194 Y90.519 E66.64549
G1 X90.211 Y90.382 E66.65271
G1 Z3.800 F7800.000
G1 X90.212 Y90.380 F7800.000
G1 X90.274 Y90.283 E66.65872 F935.286
G1 X90.389 Y90.226 E66.66544
G1 X90.514 Y90.213 E66.67200
G1 X109.548 Y90.219 E67.66642
G1 X109.657 Y90.243 E67.67225
G1 X109.717 Y90.283 E67.67604
G1 X109.765 Y90.347 E67.68021
G1 X109.794 Y90.513 E67.68904
G1 X109.794 Y109.487 E68.68028
G1 X109.771 Y109.657 E68.68925
G1 X109.729 Y109.729 E68.69364
G1 X109.663 Y109.782 E68.69807
G1 X109.488 Y109.813 E68.70737
G1 X90.512 Y109.813 E69.69874
G1 X90.335 Y109.786 E69.70812
G1 X90.264 Y109.736 E69.71264
G1 X90.219 Y109.662 E69.71715
G1 X90.194 Y109.487 E69.72639
G1 X90.194 Y90.520 E70.71735
G1 X90.212 Y90.380 E70.72471
G1 Z4.000 F7800.000
G1 X90.212 Y90.378 F7800.000
G1 X90.278 Y90.278 E70.73094 F935.285
G1 X90.348 Y90.237 E70.73518
G1 X90.514 Y90.213 E70.74394
G1 X109.522 Y90.216 E71.73700
G1 X109.651 Y90.239 E71.74384
G1 X109.717 Y90.283 E71.74799
G1 X109.765 Y90.347 E71.75217
G1 X109.794 Y90.513 E71.76099
G1 X109.794 Y109.487 E72.75223
G1 X109.771 Y109.657 E72.76121
G1 X109.729 Y109.729 E72.76559
G1 X109.663 Y109.782 E72.77003
G1 X109.488 Y109.813 E72.77932
G1 X90.512 Y109.813 E73.77070
G1 X90.335 Y109.786 E73.78007
G1 X90.269 Y109.740 E73.78428
G1 X90.208 Y109.618 E73.79139
G1 X90.194 Y109.487 E73.79826
G1 X90.194 Y90.520 E74.78920
G1 X90.212 Y90.378 E74.79670
G1 Z4.200 F7800.000
G1 X90.201 Y90.420 F7800.000
G1 X90.227 Y90.342 E74.80097 F935.281
G1 X90.273 Y90.283 E74.80490
G1 X90.394 Y90.225 E74.81188
G1 X90.514 Y90.213 E74.81819
G1 X109.543 Y90.218 E75.81237
G1 X109.657 Y90.243 E75.81847
G1 X109.717 Y90.283 E75.82223
G1 X109.765 Y90.347 E75.82640
G1 X109.794 Y90.513 E75.83523
G1 X109.794 Y109.487 E76.82647
G1 X109.771 Y109.657 E76.83544
G1 X109.729 Y109.729 E76.83983
G1 X109.663 Y109.782 E76.84426
G1 X109.488 Y109.813 E76.85356
G1 X90.512 Y109.813 E77.84493
G1 X90.335 Y109.786 E77.85430
G1 X90.269 Y109.740 E77.85850
G1 X90.208 Y109.616 E77.86575
G1 X90.194 Y109.487 E77.87249
G1 X90.201 Y90.420 E78.86867
G1 Z4.400 F7800.000
G1 X90.210 Y90.388 F7800.000
G1 X90.280 Y90.278 E78.87548 F935.243
G1 X90.380 Y90.230 E78.88126
G1 X90.524 Y90.213 E78.88885
G1 X109.541 Y90.218 E79.88237
G1 X109.657 Y90.243 E79.88860
G1 X109.717 Y90.283 E79.89235
G1 X109.765 Y90.347 E79.89652
G1 X109.794 Y90.513 E79.90535
G1 X109.794 Y109.487 E80.89659
G1 X109.771 Y109.657 E80.90556
G1 X109.729 Y109.729 E80.90995
G1 X109.663 Y109.782 E80.91438
G1 X109.488 Y109.813 E80.92368
G1 X90.512 Y109.813 E81.91505
G1 X90.335 Y109.786 E81.92443
G1 X90.269 Y109.740 E81.92861
G1 X90.211 Y109.628 E81.93520
G1 X90.194 Y109.478 E81.94309
G1 X90.194 Y90.520 E82.93352
G1 X90.210 Y90.388 E82.94047
G1 Z4.600 F7800.000
G1 X90.211 Y90.386 F7800.000
G1 X90.285 Y90.273 E82.94755 F935.260
G1 X90.348 Y90.237 E82.95133
G1 X90.514 Y90.213 E82.96009
G1 X109.538 Y90.218 E83.95402
G1 X109.658 Y90.243 E83.96039
G1 X109.717 Y90.283 E83.96412
G1 X109.765 Y90.347 E83.96829
G1 X109.794 Y90.513 E83.97712
G1 X109.794 Y109.487 E84.96836
G1 X109.771 Y109.657 E84.97733
G1 X109.729 Y109.729 E84.98172
