; generated by Slic3r 1.2.9 on 2020-08-18 at 20:30:18

; external perimeters extrusion width = 0.40mm
; perimeters extrusion width = 0.67mm
; infill extrusion width = 0.67mm
; solid infill extrusion width = 0.67mm
; top infill extrusion width = 0.67mm
; support material extrusion width = 0.40mm

M107
M190 S60 ; set bed temperature
M104 S205 ; set temperature
G28 ; home all axes
G1 Z5 F5000 ; lift nozzle

M109 S205 ; wait for temperature to be reached
G21 ; set units to millimeters
G90 ; use absolute coordinates
M82 ; use absolute distances for extrusion
G92 E0
G1 Z0.400 F7800.000
G1 E-1.50000 F2400.00000
G92 E0
G1 X55.674 Y54.865 F7800.000
G1 E1.50000 F2400.00000
G1 X57.669 Y53.703 E1.77422 F1800.000
G1 X58.802 Y53.394 E1.91370
G1 X93.802 Y47.046 E6.13829
G1 X95.000 Y46.938 E6.28116
G1 X105.000 Y46.938 E7.46882
G1 X106.198 Y47.046 E7.61169
G1 X141.198 Y53.394 E11.83628 F1800.000
G1 X143.365 Y54.190 E12.11051
G1 X145.135 Y55.674 E12.38473
G1 X146.297 Y57.669 E12.65896
G1 X146.606 Y58.802 E12.79843
G1 X152.954 Y93.802 E17.02302
G1 X153.062 Y95.000 E17.16589
G1 X153.062 Y105.000 E18.35355
G1 X152.954 Y106.198 E18.49642
G1 X146.606 Y141.198 E22.72101
G1 X145.810 Y143.365 E22.99524
G1 X144.326 Y145.135 E23.26946
G1 X142.331 Y146.297 E23.54369
G1 X141.198 Y146.606 E23.68316
G1 X106.198 Y152.954 E27.90775
G1 X105.000 Y153.062 E28.05062
G1 X95.000 Y153.062 E29.23828
G1 X93.802 Y152.954 E29.38115
G1 X58.802 Y146.606 E33.60574
G1 X56.635 Y145.810 E33.87997
G1 X54.865 Y144.326 E34.15419
G1 X53.703 Y142.331 E34.42842
G1 X53.394 Y141.198 E34.56789
G1 X47.046 Y106.198 E38.79248
G1 X46.938 Y105.000 E38.93536
G1 X46.938 Y95.000 E40.12301
G1 X47.046 Y93.802 E40.26588
G1 X53.394 Y58.802 E44.49047
G1 X54.190 Y56.635 E44.76470
G1 X55.635 Y54.911 E45.03180
G1 E43.53180 F2400.00000
G92 E0
G1 X138.172 Y103.172 F7800.000
G1 E1.50000 F2400.00000
G1 X138.172 Y138.172 E5.65678 F1800.000
G1 X103.172 Y138.172 E9.81356
G1 X103.172 Y142.398 E10.31551
G1 X96.828 Y142.398 E11.06888
G1 X96.828 Y138.172 E11.57083
G1 X61.828 Y138.172 E15.72761
G1 X61.828 Y103.172 E19.88439
G1 X57.602 Y103.172 E20.38634
G1 X57.602 Y96.828 E21.13972
G1 X61.828 Y96.828 E21.64167
G1 X61.828 Y61.828 E25.79845
G1 X96.828 Y61.828 E29.95523
G1 X96.828 Y57.602 E30.45718
G1 X103.172 Y57.602 E31.21055
G1 X103.172 Y61.828 E31.71250
G1 X138.172 Y61.828 E35.86928
G1 X138.172 Y96.828 E40.02606
G1 X142.398 Y96.828 E40.52801
G1 X142.398 Y103.172 E41.28138
G1 X138.232 Y103.172 E41.77621
G1 X138.886 Y103.886 F7800.000
G1 X138.886 Y138.886 E45.93299 F1800.000
G1 X103.886 Y138.886 E50.08977
G1 X103.886 Y143.112 E50.59172
G1 X96.114 Y143.112 E51.51472
G1 X96.114 Y138.886 E52.01667
G1 X61.114 Y138.886 E56.17345
G1 X61.114 Y103.886 E60.33023
G1 X56.888 Y103.886 E60.83218
G1 X56.888 Y96.114 E61.75519
G1 X61.114 Y96.114 E62.25714
G1 X61.114 Y61.114 E66.41392
G1 X96.114 Y61.114 E70.57070
G1 X96.114 Y56.888 E71.07265
G1 X103.886 Y56.888 E71.99566
G1 X103.886 Y61.114 E72.49761
G1 X138.886 Y61.114 E76.65439
G1 X138.886 Y96.114 E80.81117
G1 X143.112 Y96.114 E81.31312
G1 X143.112 Y103.886 E82.23612
G1 X138.946 Y103.886 E82.73095
G1 X139.600 Y104.600 F7800.000
G1 X139.600 Y139.600 E86.88773 F1800.000
G1 X104.600 Y139.600 E91.04451
G1 X104.600 Y145.948 E91.79840
G1 X103.400 Y145.948 E91.94092
G1 X103.400 Y143.826 E92.19286
G1 X96.600 Y143.826 E93.00046
G1 X96.600 Y145.948 E93.25240
G1 X95.400 Y145.948 E93.39492
G1 X95.400 Y139.600 E94.14881
G1 X60.400 Y139.600 E98.30559
G1 X60.400 Y104.600 E102.46237
G1 X54.052 Y104.600 E103.21626
G1 X54.052 Y103.400 E103.35878
G1 X56.174 Y103.400 E103.61071
G1 X56.174 Y96.600 E104.41832
G1 X54.052 Y96.600 E104.67026
G1 X54.052 Y95.400 E104.81277
G1 X60.400 Y95.400 E105.56666
G1 X60.400 Y60.400 E109.72344
G1 X95.400 Y60.400 E113.88023
G1 X95.400 Y54.052 E114.63411
G1 X96.600 Y54.052 E114.77663
G1 X96.600 Y56.174 E115.02857
G1 X103.400 Y56.174 E115.83618
G1 X103.400 Y54.052 E116.08811
G1 X104.600 Y54.052 E116.23063
G1 X104.600 Y60.400 E116.98452
G1 X139.600 Y60.400 E121.14130
G1 X139.600 Y95.400 E125.29808
G1 X145.948 Y95.400 E126.05197
G1 X145.948 Y96.600 E126.19449
G1 X143.826 Y96.600 E126.44643
G1 X143.826 Y103.400 E127.25403
G1 X145.948 Y103.400 E127.50597
G1 X145.948 Y104.600 E127.64849
G1 X139.660 Y104.600 E128.39525
G1 X139.200 Y104.600 F7800.000
G1 X143.469 Y104.000 F7800.000
G1 X145.591 Y104.000 E128.92941 F1800.000
G1 E127.42941 F2400.00000
G92 E0
G1 X141.963 Y101.352 F7800.000
G1 E1.50000 F2400.00000
G1 X137.874 Y97.264 E2.19026 F1800.000
G1 X138.890 Y97.264 E2.31147
G1 X141.963 Y100.337 E2.83032
G1 X141.963 Y99.322 E2.95153
G1 X139.905 Y97.264 E3.29896
G1 X140.920 Y97.264 E3.42017
G1 X141.963 Y98.306 E3.59618
G1 X138.270 Y102.736 F7800.000
G1 X97.264 Y61.730 E10.51966 F1800.000
G1 X97.264 Y60.714 E10.64087
G1 X139.286 Y102.736 E17.73576
G1 X140.301 Y102.736 E17.85697
G1 X97.264 Y59.699 E25.12328
G1 X97.264 Y58.684 E25.24449
G1 X141.316 Y102.736 E32.68221
G1 X141.963 Y102.367 E32.77107
G1 X97.633 Y58.037 E40.25568
G1 X102.736 Y59.080 F7800.000
G1 X101.694 Y58.037 E40.43170 F1800.000
G1 X100.678 Y58.037 E40.55291
G1 X102.736 Y60.095 E40.90034
G1 X102.736 Y61.110 E41.02155
G1 X99.663 Y58.037 E41.54040
G1 X98.648 Y58.037 E41.66160
G1 X137.736 Y97.126 E48.26122
G1 X137.736 Y96.110 E48.38243
G1 X103.890 Y62.264 E54.09705
G1 X104.905 Y62.264 E54.21826
G1 X137.736 Y95.095 E59.76146
G1 X137.736 Y94.080 E59.88267
G1 X105.920 Y62.264 E65.25446
G1 X106.935 Y62.264 E65.37567
G1 X137.736 Y93.065 E70.57605
G1 X137.736 Y92.049 E70.69726
G1 X107.951 Y62.264 E75.72621
G1 X108.966 Y62.264 E75.84742
G1 X137.736 Y91.034 E80.70497
G1 X137.736 Y90.019 E80.82617
G1 X109.981 Y62.264 E85.51230
G1 X110.996 Y62.264 E85.63351
G1 X137.736 Y89.004 E90.14822
G1 X137.736 Y87.988 E90.26943
G1 X112.012 Y62.264 E94.61273
G1 X113.027 Y62.264 E94.73394
G1 X137.736 Y86.973 E98.90582
G1 X137.736 Y85.958 E99.02703
G1 X114.042 Y62.264 E103.02749
G1 X115.057 Y62.264 E103.14870
G1 X137.736 Y84.943 E106.97775
G1 X137.736 Y83.927 E107.09896
G1 X116.073 Y62.264 E110.75660
G1 X117.088 Y62.264 E110.87781
G1 X137.736 Y82.912 E114.36403
G1 X137.736 Y81.897 E114.48523
G1 X118.103 Y62.264 E117.80004
G1 X119.118 Y62.264 E117.92125
G1 X137.736 Y80.882 E121.06464
G1 X137.736 Y79.866 E121.18584
G1 X120.134 Y62.264 E124.15782
G1 X121.149 Y62.264 E124.27903
G1 X137.736 Y78.851 E127.07958
G1 X137.736 Y77.836 E127.20079
G1 X122.164 Y62.264 E129.82994
G1 X123.180 Y62.264 E129.95115
G1 X137.736 Y76.820 E132.40887
G1 X137.736 Y75.805 E132.53008
G1 X124.195 Y62.264 E134.81639
G1 X125.210 Y62.264 E134.93760
G1 X137.736 Y74.790 E137.05250
G1 X137.736 Y73.775 E137.17371
G1 X126.225 Y62.264 E139.11719
G1 X127.241 Y62.264 E139.23840
G1 X137.736 Y72.759 E141.01046
G1 X137.736 Y71.744 E141.13167
G1 X128.256 Y62.264 E142.73232
G1 X129.271 Y62.264 E142.85353
G1 X137.736 Y70.729 E144.28276
G1 X137.736 Y69.714 E144.40397
G1 X130.286 Y62.264 E145.66179
G1 X131.302 Y62.264 E145.78300
G1 X137.736 Y68.698 E146.86940
G1 X137.736 Y67.683 E146.99061
G1 X132.317 Y62.264 E147.90560
G1 X133.332 Y62.264 E148.02681
G1 X137.736 Y66.668 E148.77038
G1 X137.736 Y65.653 E148.89159
G1 X134.347 Y62.264 E149.46375
G1 X135.363 Y62.264 E149.58495
G1 X137.736 Y64.637 E149.98570
G1 X137.736 Y63.622 E150.10691
G1 X136.378 Y62.264 E150.33623
G1 X137.393 Y62.264 E150.45744
G1 X137.736 Y62.607 E150.51535
G1 X137.736 Y103.217 F7800.000
G1 X96.783 Y62.264 E157.42988 F1800.000
G1 X95.767 Y62.264 E157.55109
G1 X137.736 Y104.233 E164.63703
G1 X137.736 Y105.248 E164.75824
G1 X94.752 Y62.264 E172.01560
G1 X93.737 Y62.264 E172.13681
G1 X137.736 Y106.263 E179.56558
G1 X137.736 Y107.278 E179.68679
G1 X92.722 Y62.264 E187.28698
G1 X91.706 Y62.264 E187.40819
G1 X137.736 Y108.294 E195.17980
G1 X137.736 Y109.309 E195.30101
G1 X90.691 Y62.264 E203.24403
G1 X89.676 Y62.264 E203.36524
G1 X137.736 Y110.324 E211.47967
G1 X137.736 Y111.339 E211.60088
G1 X88.661 Y62.264 E219.88673
G1 X87.645 Y62.264 E220.00794
G1 X137.736 Y112.355 E228.46521
G1 X137.736 Y113.370 E228.58642
G1 X86.630 Y62.264 E237.21510
G1 X85.615 Y62.264 E237.33631
G1 X137.736 Y114.385 E246.13641
G1 X137.736 Y115.400 E246.25762
G1 X84.600 Y62.264 E255.22913
G1 X83.584 Y62.264 E255.35034
G1 X137.736 Y116.416 E264.49327
G1 X137.736 Y117.431 E264.61448
G1 X82.569 Y62.264 E273.92882
G1 X81.554 Y62.264 E274.05003
G1 X137.736 Y118.446 E283.53579
G1 X137.736 Y119.461 E283.65700
G1 X80.539 Y62.264 E293.31418
G1 X79.523 Y62.264 E293.43539
G1 X137.736 Y120.477 E303.26398
G1 X137.736 Y121.492 E303.38519
G1 X78.508 Y62.264 E313.38519
G1 X77.493 Y62.264 E313.50640
G1 X137.736 Y122.507 E323.67783
G1 X137.736 Y123.523 E323.79903
G1 X76.477 Y62.264 E334.14187
G1 X75.462 Y62.264 E334.26308
G1 X137.736 Y124.538 E344.77733
G1 X137.736 Y125.553 E344.89854
G1 X74.447 Y62.264 E355.58421
G1 X73.432 Y62.264 E355.70542
G1 X137.736 Y126.568 E366.56250
G1 X137.736 Y127.584 E366.68371
G1 X72.416 Y62.264 E377.71221
G1 X71.401 Y62.264 E377.83342
G1 X137.736 Y128.599 E389.03334
G1 X137.736 Y129.614 E389.15455
G1 X70.386 Y62.264 E400.52588
G1 X69.371 Y62.264 E400.64708
G1 X137.736 Y130.629 E412.18983
G1 X137.736 Y131.645 E412.31104
G1 X68.355 Y62.264 E424.02520
G1 X67.340 Y62.264 E424.14641
G1 X137.736 Y132.660 E436.03199
G1 X137.736 Y133.675 E436.15319
G1 X66.325 Y62.264 E448.21019
G1 X65.310 Y62.264 E448.33140
G1 X137.736 Y134.690 E460.55980
G1 X137.736 Y135.706 E460.68101
G1 X64.294 Y62.264 E473.08084
G1 X63.279 Y62.264 E473.20204
G1 X137.736 Y136.721 E485.77328
G1 X137.716 Y137.716 E485.89213
G1 X62.284 Y62.284 E498.62802
G1 X62.264 Y63.279 E498.74687
G1 X136.721 Y137.736 E511.31810
G1 X135.706 Y137.736 E511.43931
G1 X62.264 Y64.294 E523.83912
G1 X62.264 Y65.310 E523.96033
G1 X134.690 Y137.736 E536.18873
G1 X133.675 Y137.736 E536.30994
G1 X62.264 Y66.325 E548.36692
G1 X62.264 Y67.340 E548.48813
G1 X132.660 Y137.736 E560.37370
G1 X131.645 Y137.736 E560.49491
G1 X62.264 Y68.355 E572.20906
G1 X62.264 Y69.371 E572.33027
G1 X130.629 Y137.736 E583.87301
G1 X129.614 Y137.736 E583.99421
G1 X62.264 Y70.386 E595.36554
G1 X62.264 Y71.401 E595.48674
G1 X128.599 Y137.736 E606.68665
G1 X127.584 Y137.736 E606.80786
G1 X62.264 Y72.416 E617.83635
G1 X62.264 Y73.432 E617.95756
G1 X126.568 Y137.736 E628.81463
G1 X125.553 Y137.736 E628.93584
G1 X62.264 Y74.447 E639.62150
G1 X62.264 Y75.462 E639.74271
G1 X124.538 Y137.736 E650.25696
G1 X123.522 Y137.736 E650.37816
G1 X62.264 Y76.478 E660.72099
G1 X62.264 Y77.493 E660.84220
G1 X122.507 Y137.736 E671.01362
G1 X121.492 Y137.736 E671.13482
G1 X62.264 Y78.508 E681.13482
G1 X62.264 Y79.523 E681.25603
G1 X120.477 Y137.736 E691.08461
G1 X119.461 Y137.736 E691.20582
G1 X62.264 Y80.539 E700.86299
G1 X62.264 Y81.554 E700.98420
G1 X118.446 Y137.736 E710.46995
G1 X117.431 Y137.736 E710.59116
G1 X62.264 Y82.569 E719.90549
G1 X62.264 Y83.584 E720.02670
G1 X116.416 Y137.736 E729.16962
G1 X115.400 Y137.736 E729.29083
G1 X62.264 Y84.600 E738.26234
G1 X62.264 Y85.615 E738.38355
G1 X114.385 Y137.736 E747.18364
G1 X113.370 Y137.736 E747.30485
G1 X62.264 Y86.630 E755.93352
G1 X62.264 Y87.645 E756.05473
G1 X112.355 Y137.736 E764.51199
G1 X111.339 Y137.736 E764.63320
G1 X62.264 Y88.661 E772.91904
G1 X62.264 Y89.676 E773.04025
G1 X110.324 Y137.736 E781.15468
G1 X109.309 Y137.736 E781.27588
G1 X62.264 Y90.691 E789.21890
G1 X62.264 Y91.706 E789.34011
G1 X108.294 Y137.736 E797.11170
G1 X107.278 Y137.736 E797.23291
G1 X62.264 Y92.722 E804.83309
G1 X62.264 Y93.737 E804.95430
G1 X106.263 Y137.736 E812.38307
G1 X105.248 Y137.736 E812.50428
G1 X62.264 Y94.752 E819.76163
G1 X62.264 Y95.767 E819.88284
G1 X104.233 Y137.736 E826.96877
G1 X103.217 Y137.736 E827.08998
G1 X62.264 Y96.783 E834.00450
G1 X61.730 Y97.264 F7800.000
G1 X102.736 Y138.270 E840.92799 F1800.000
G1 X102.736 Y139.286 E841.04919
G1 X60.714 Y97.264 E848.14410
G1 X59.699 Y97.264 E848.26531
G1 X102.736 Y140.301 E855.53162
G1 X102.736 Y141.316 E855.65283
G1 X58.684 Y97.264 E863.09056
G1 X58.037 Y97.633 E863.17942
G1 X102.367 Y141.963 E870.66402
G1 X101.352 Y141.963 E870.78523
G1 X58.037 Y98.648 E878.09842
G1 X58.037 Y99.663 E878.21963
G1 X61.110 Y102.736 E878.73847
G1 X60.095 Y102.736 E878.85968
G1 X58.037 Y100.678 E879.20710
G1 X58.037 Y101.694 E879.32831
G1 X59.080 Y102.736 E879.50432
G1 X62.264 Y103.890 F7800.000
G1 X96.110 Y137.736 E885.21893 F1800.000
G1 X95.095 Y137.736 E885.34014
G1 X62.264 Y104.905 E890.88333
G1 X62.264 Y105.920 E891.00454
G1 X94.080 Y137.736 E896.37632
G1 X93.065 Y137.736 E896.49753
G1 X62.264 Y106.935 E901.69790
G1 X62.264 Y107.951 E901.81910
G1 X92.049 Y137.736 E906.84805
G1 X91.034 Y137.736 E906.96926
G1 X62.264 Y108.966 E911.82680
G1 X62.264 Y109.981 E911.94801
G1 X90.019 Y137.736 E916.63412
G1 X89.004 Y137.736 E916.75533
G1 X62.264 Y110.996 E921.27004
G1 X62.264 Y112.012 E921.39125
G1 X87.988 Y137.736 E925.73453
G1 X86.973 Y137.736 E925.85574
G1 X62.264 Y113.027 E930.02761
G1 X62.264 Y114.042 E930.14882
G1 X85.958 Y137.736 E934.14928
G1 X84.943 Y137.736 E934.27049
G1 X62.264 Y115.057 E938.09953
G1 X62.264 Y116.073 E938.22074
G1 X83.927 Y137.736 E941.87837
G1 X82.912 Y137.736 E941.99957
G1 X62.264 Y117.088 E945.48578
G1 X62.264 Y118.103 E945.60699
G1 X81.897 Y137.736 E948.92179
G1 X80.881 Y137.736 E949.04300
G1 X62.264 Y119.119 E952.18638
G1 X62.264 Y120.134 E952.30759
G1 X79.866 Y137.736 E955.27955
G1 X78.851 Y137.736 E955.40076
G1 X62.264 Y121.149 E958.20131
G1 X62.264 Y122.164 E958.32252
G1 X77.836 Y137.736 E960.95165
G1 X76.820 Y137.736 E961.07286
G1 X62.264 Y123.180 E963.53058
G1 X62.264 Y124.195 E963.65179
G1 X75.805 Y137.736 E965.93809
G1 X74.790 Y137.736 E966.05930
G1 X62.264 Y125.210 E968.17418
G1 X62.264 Y126.225 E968.29539
G1 X73.775 Y137.736 E970.23886
G1 X72.759 Y137.736 E970.36007
G1 X62.264 Y127.241 E972.13213
G1 X62.264 Y128.256 E972.25334
G1 X71.744 Y137.736 E973.85398
G1 X70.729 Y137.736 E973.97519
G1 X62.264 Y129.271 E975.40441
G1 X62.264 Y130.286 E975.52562
G1 X69.714 Y137.736 E976.78343
G1 X68.698 Y137.736 E976.90464
G1 X62.264 Y131.302 E977.99103
G1 X62.264 Y132.317 E978.11224
G1 X67.683 Y137.736 E979.02722
G1 X66.668 Y137.736 E979.14843
G1 X62.264 Y133.332 E979.89199
G1 X62.264 Y134.347 E980.01320
G1 X65.653 Y137.736 E980.58535
G1 X64.637 Y137.736 E980.70656
G1 X62.264 Y135.363 E981.10729
G1 X62.264 Y136.378 E981.22850
G1 X63.622 Y137.736 E981.45782
G1 X62.607 Y137.736 E981.57903
G1 X62.264 Y137.393 E981.63693
G1 X97.264 Y138.890 F7800.000
G1 X100.337 Y141.963 E982.15577 F1800.000
G1 X99.322 Y141.963 E982.27698
G1 X97.264 Y139.905 E982.62440
G1 X97.264 Y140.920 E982.74561
G1 X98.306 Y141.963 E982.92161
G1 X143.469 Y96.000 F7800.000
G1 X145.591 Y96.000 E983.45577 F1800.000
G1 E981.95577 F2400.00000
G92 E0
G1 X139.000 Y61.000 F7800.000
G1 X104.000 Y61.000 F7800.000
G1 X100.000 Y60.774 F7800.000
G1 X104.000 Y56.774 F7800.000
G1 X104.000 Y56.774 F7800.000
G1 X104.000 Y56.531 F7800.000
G1 E1.50000 F2400.00000
G1 X104.000 Y54.409 E2.03416 F1800.000
G1 E0.53416 F2400.00000
G92 E0
G1 X96.000 Y54.652 F7800.000
G1 X96.000 Y54.652 F7800.000
G1 X96.000 Y54.409 F7800.000
G1 E1.50000 F2400.00000
G1 X96.000 Y56.531 E2.03416 F1800.000
G1 X96.000 Y56.774 F7800.000
G1 X100.000 Y100.000 F7800.000
G1 X60.774 Y100.000 F7800.000
G1 X56.774 Y96.000 F7800.000
G1 X56.774 Y96.000 F7800.000
G1 X56.531 Y96.000 F7800.000
G1 X54.409 Y96.000 E2.56832 F1800.000
G1 X54.652 Y96.000 F7800.000
G1 X56.774 Y96.000 F7800.000
G1 X56.774 Y104.000 F7800.000
G1 X54.652 Y104.000 F7800.000
G1 X54.652 Y104.000 F7800.000
G1 X54.409 Y104.000 F7800.000
G1 X56.531 Y104.000 E3.10247 F1800.000
G1 X56.774 Y104.000 F7800.000
G1 X100.000 Y100.000 F7800.000
G1 X100.000 Y139.226 F7800.000
G1 X96.000 Y143.226 F7800.000
G1 X96.000 Y143.226 F7800.000
G1 X96.000 Y143.469 F7800.000
G1 X96.000 Y145.591 E3.63663 F1800.000
G1 X96.000 Y145.348 F7800.000
G1 X96.000 Y143.226 F7800.000
G1 X104.000 Y143.226 F7800.000
G1 X104.000 Y145.348 F7800.000
G1 X104.000 Y145.348 F7800.000
G1 X104.000 Y145.591 F7800.000
G1 X104.000 Y143.469 E4.17079 F1800.000
G1 Z0.400 F7800.000
G1 Z0.600 F7800.000
G1 E2.67079 F2400.00000
G92 E0
G1 X138.679 Y103.679 F7800.000
G1 E1.50000 F2400.00000
