; generated by Slic3r 1.2.9 on 2020-08-19 at 15:04:08

; external perimeters extrusion width = 0.40mm
; perimeters extrusion width = 0.67mm
; infill extrusion width = 0.67mm
; solid infill extrusion width = 0.67mm
; top infill extrusion width = 0.67mm
; support material extrusion width = 0.40mm

M107
M190 S65 ; set bed temperature
M104 S205 ; set temperature
G28 ; home all axes
G1 Z5 F5000 ; lift nozzle

M109 S205 ; wait for temperature to be reached
G21 ; set units to millimeters
G90 ; use absolute coordinates
M82 ; use absolute distances for extrusion
G92 E0
G1 Z0.400 F7800.000
G1 E-1.50000 F2400.00000
G92 E0
G1 X69.827 Y70.720 F7800.000
G1 E1.50000 F2400.00000
G1 X71.583 Y69.220 E1.77422 F1800.000
G1 X73.743 Y68.405 E2.04845
G1 X75.000 Y68.286 E2.19842
G1 X95.000 Y68.286 E4.57372
G1 X97.275 Y68.683 E4.84794
G1 X99.280 Y69.827 E5.12217 F1800.000
G1 X100.780 Y71.583 E5.39639
G1 X101.595 Y73.743 E5.67062
G1 X101.714 Y75.000 E5.82058
G1 X101.714 Y95.000 E8.19589
G1 X101.317 Y97.275 E8.47011
G1 X100.173 Y99.280 E8.74434
G1 X98.417 Y100.780 E9.01856
G1 X96.257 Y101.595 E9.29279
G1 X95.000 Y101.714 E9.44275
G1 X75.000 Y101.714 E11.81805
G1 X72.725 Y101.317 E12.09228
G1 X70.720 Y100.173 E12.36650
G1 X69.220 Y98.417 E12.64073
G1 X68.405 Y96.257 E12.91495
G1 X68.286 Y95.000 E13.06492
G1 X68.286 Y75.000 E15.44022
G1 X68.683 Y72.725 E15.71445
G1 X69.797 Y70.772 E15.98155
G1 E14.48155 F2400.00000
G92 E0
G1 X93.172 Y93.172 F7800.000
G1 E1.50000 F2400.00000
G1 X76.828 Y93.172 E3.44102 F1800.000
G1 X76.828 Y76.828 E5.38204
G1 X93.172 Y76.828 E7.32306
G1 X93.172 Y93.112 E9.25696
G1 X93.886 Y93.886 F7800.000
G1 X76.114 Y93.886 E11.36761 F1800.000
G1 X76.114 Y76.114 E13.47827
G1 X93.886 Y76.114 E15.58893
G1 X93.886 Y93.826 E17.69245
G1 X94.600 Y94.600 F7800.000
G1 X75.400 Y94.600 E19.97274 F1800.000
G1 X75.400 Y75.400 E22.25303
G1 X94.600 Y75.400 E24.53332
G1 X94.600 Y94.540 E26.80649
G1 X94.254 Y94.400 F7800.000
G1 X92.736 Y77.607 F7800.000
G1 X92.393 Y77.264 E26.86600 F1800.000
G1 X91.350 Y77.264 E26.99403
G1 X92.736 Y78.650 E27.23459
G1 X92.736 Y79.694 E27.36261
G1 X90.306 Y77.264 E27.78423
G1 X89.263 Y77.264 E27.91225
G1 X92.736 Y80.737 E28.51491
G1 X92.736 Y81.780 E28.64293
G1 X88.220 Y77.264 E29.42665
G1 X87.176 Y77.264 E29.55467
G1 X92.736 Y82.824 E30.51943
G1 X92.736 Y83.867 E30.64745
G1 X86.133 Y77.264 E31.79327
G1 X85.089 Y77.264 E31.92129
G1 X92.736 Y84.911 E33.24815
G1 X92.736 Y85.954 E33.37617
G1 X84.046 Y77.264 E34.88408
G1 X83.003 Y77.264 E35.01210
G1 X92.736 Y86.997 E36.70106
G1 X92.736 Y88.041 E36.82908
G1 X81.959 Y77.264 E38.69910
G1 X80.916 Y77.264 E38.82712
G1 X92.736 Y89.084 E40.87818
G1 X92.736 Y90.128 E41.00620
G1 X79.872 Y77.264 E43.23831
G1 X78.829 Y77.264 E43.36633
G1 X92.736 Y91.171 E45.77949
G1 X92.736 Y92.214 E45.90751
G1 X77.786 Y77.264 E48.50172
G1 X77.264 Y77.786 E48.59224
G1 X92.214 Y92.736 E51.18645
G1 X91.171 Y92.736 E51.31447
G1 X77.264 Y78.829 E53.72763
G1 X77.264 Y79.872 E53.85565
G1 X90.128 Y92.736 E56.08775
G1 X89.084 Y92.736 E56.21578
G1 X77.264 Y80.916 E58.26683
G1 X77.264 Y81.959 E58.39485
G1 X88.041 Y92.736 E60.26486
G1 X86.997 Y92.736 E60.39288
G1 X77.264 Y83.003 E62.08184
G1 X77.264 Y84.046 E62.20986
G1 X85.954 Y92.736 E63.71777
G1 X84.911 Y92.736 E63.84579
G1 X77.264 Y85.089 E65.17265
G1 X77.264 Y86.133 E65.30068
G1 X83.867 Y92.736 E66.44649
G1 X82.824 Y92.736 E66.57451
G1 X77.264 Y87.176 E67.53927
G1 X77.264 Y88.220 E67.66729
G1 X81.780 Y92.736 E68.45100
G1 X80.737 Y92.736 E68.57902
G1 X77.264 Y89.263 E69.18168
G1 X77.264 Y90.306 E69.30971
G1 X79.694 Y92.736 E69.73132
G1 X78.650 Y92.736 E69.85934
G1 X77.264 Y91.350 E70.09990
G1 X77.264 Y92.393 E70.22792
G1 X77.607 Y92.736 E70.28744
G1 Z0.400 F7800.000
M104 S200 ; set temperature
M140 S60 ; wait for bed temperature to be reached
G1 Z0.600 F7800.000
G1 X93.679 Y93.679 F7800.000
G1 X76.321 Y93.679 E71.19430 F3600.000
G1 X76.321 Y76.321 E72.10117
G1 X93.679 Y76.321 E73.00803
G1 X93.679 Y93.619 E73.91176
G1 X94.307 Y94.307 F7800.000
G1 X75.693 Y94.307 E74.88428 F3600.000
G1 X75.693 Y75.693 E75.85680
G1 X94.307 Y75.693 E76.82931
G1 X94.307 Y94.247 E77.79870
G1 X94.800 Y94.800 F7800.000
G1 X75.200 Y94.800 E78.38064 F1800.000
G1 X75.200 Y75.200 E78.96259
G1 X94.800 Y75.200 E79.54454
G1 X94.800 Y94.740 E80.12471
G1 X94.454 Y94.600 F7800.000
G1 X92.992 Y93.298 F7800.000
G1 X93.298 Y92.992 E80.14778 F1200.000
G1 X93.298 Y92.087 E80.19594
G1 X92.087 Y93.298 E80.28711
G1 X91.182 Y93.298 E80.33526
G1 X93.298 Y91.182 E80.49453
G1 X93.298 Y90.277 E80.54269
G1 X90.277 Y93.298 E80.77006
G1 X89.372 Y93.298 E80.81822
G1 X93.298 Y89.372 E81.11369
G1 X93.298 Y88.467 E81.16184
G1 X88.467 Y93.298 E81.52542
G1 X87.562 Y93.298 E81.57357
G1 X93.298 Y87.562 E82.00525
G1 X93.298 Y86.657 E82.05341
G1 X86.657 Y93.298 E82.55318
G1 X85.752 Y93.298 E82.60134
G1 X93.298 Y85.752 E83.16922
G1 X93.298 Y84.847 E83.21737
G1 X84.847 Y93.298 E83.85335
G1 X83.942 Y93.298 E83.90151
G1 X93.298 Y83.942 E84.60559
G1 X93.298 Y83.037 E84.65374
G1 X83.037 Y93.298 E85.42592
G1 X82.132 Y93.298 E85.47408
G1 X93.298 Y82.132 E86.31436
G1 X93.298 Y81.227 E86.36252
G1 X81.227 Y93.298 E87.27090
G1 X80.322 Y93.298 E87.31905
G1 X93.298 Y80.322 E88.29554
G1 X93.298 Y79.417 E88.34369
G1 X79.417 Y93.298 E89.38828
G1 X78.512 Y93.298 E89.43644
G1 X93.298 Y78.512 E90.54912
G1 X93.298 Y77.607 E90.59728
G1 X77.607 Y93.298 E91.77807
G1 X76.722 Y93.278 E91.82517
G1 X93.278 Y76.722 E93.07105
G1 X92.393 Y76.702 E93.11815
G1 X76.702 Y92.393 E94.29894
G1 X76.702 Y91.488 E94.34709
G1 X91.488 Y76.702 E95.45978
G1 X90.583 Y76.702 E95.50793
G1 X76.702 Y90.583 E96.55251
G1 X76.702 Y89.678 E96.60067
G1 X89.678 Y76.702 E97.57715
G1 X88.773 Y76.702 E97.62531
G1 X76.702 Y88.773 E98.53369
G1 X76.702 Y87.868 E98.58184
G1 X87.868 Y76.702 E99.42212
G1 X86.963 Y76.702 E99.47028
G1 X76.702 Y86.963 E100.24246
G1 X76.702 Y86.058 E100.29061
G1 X86.058 Y76.702 E100.99469
G1 X85.153 Y76.702 E101.04285
G1 X76.702 Y85.153 E101.67882
G1 X76.702 Y84.248 E101.72698
G1 X84.248 Y76.702 E102.29485
G1 X83.343 Y76.702 E102.34301
G1 X76.702 Y83.343 E102.84278
G1 X76.702 Y82.438 E102.89094
G1 X82.438 Y76.702 E103.32261
G1 X81.533 Y76.702 E103.37077
G1 X76.702 Y81.533 E103.73434
G1 X76.702 Y80.628 E103.78250
G1 X80.628 Y76.702 E104.07797
G1 X79.723 Y76.702 E104.12612
G1 X76.702 Y79.723 E104.35349
G1 X76.702 Y78.818 E104.40165
G1 X78.818 Y76.702 E104.56092
G1 X77.913 Y76.702 E104.60907
G1 X76.702 Y77.913 E104.70024
G1 X76.702 Y77.008 E104.74840
G1 X77.008 Y76.702 E104.77146
G1 Z0.800 F7800.000
G1 X93.679 Y93.679 F7800.000
G1 X76.321 Y93.679 E105.67833 F3600.000
G1 X76.321 Y76.321 E106.58519
G1 X93.679 Y76.321 E107.49206
G1 X93.679 Y93.619 E108.39579
G1 X94.307 Y94.307 F7800.000
G1 X75.693 Y94.307 E109.36830 F3600.000
G1 X75.693 Y75.693 E110.34082
G1 X94.307 Y75.693 E111.31334
G1 X94.307 Y94.247 E112.28272
G1 X94.800 Y94.800 F7800.000
G1 X75.200 Y94.800 E112.86467 F1800.000
G1 X75.200 Y75.200 E113.44662
G1 X94.800 Y75.200 E114.02857
G1 X94.800 Y94.740 E114.60874
G1 X94.454 Y94.600 F7800.000
G1 X93.298 Y79.824 F7800.000
G1 X90.176 Y76.702 E114.83939 F4800.000
G1 X87.215 Y76.702 E114.99413
G1 X93.298 Y82.785 E115.44363
G1 X93.298 Y85.747 E115.59837
G1 X84.253 Y76.702 E116.26671
G1 X81.291 Y76.702 E116.42146
G1 X93.298 Y88.709 E117.30864
G1 X93.298 Y91.671 E117.46338
G1 X78.329 Y76.702 E118.56940
G1 X76.702 Y78.037 E118.67936
G1 X91.963 Y93.298 E119.80696
G1 X89.001 Y93.298 E119.96170
G1 X76.702 Y80.999 E120.87046
G1 X76.702 Y83.961 E121.02520
G1 X86.039 Y93.298 E121.71512
G1 X83.077 Y93.298 E121.86986
G1 X76.702 Y86.923 E122.34093
G1 X76.702 Y89.884 E122.49568
G1 X80.116 Y93.298 E122.74791
G1 X77.154 Y93.298 E122.90265
G1 X76.702 Y92.846 E122.93604
M106 S247.35
G1 Z1.000 F7800.000
G1 X93.679 Y93.679 F7800.000
G1 X76.321 Y93.679 E123.84290 F3600.000
G1 X76.321 Y76.321 E124.74977
G1 X93.679 Y76.321 E125.65663
G1 X93.679 Y93.619 E126.56036
G1 X94.307 Y94.307 F7800.000
G1 X75.693 Y94.307 E127.53288 F3600.000
G1 X75.693 Y75.693 E128.50540
G1 X94.307 Y75.693 E129.47791
G1 X94.307 Y94.247 E130.44730
G1 X94.800 Y94.800 F7800.000
G1 X75.200 Y94.800 E131.02925 F1800.000
G1 X75.200 Y75.200 E131.61119
G1 X94.800 Y75.200 E132.19314
G1 X94.800 Y94.740 E132.77331
G1 X94.454 Y94.600 F7800.000
G1 X90.176 Y93.298 F7800.000
G1 X93.298 Y90.176 E133.00396 F4800.000
G1 X93.298 Y87.215 E133.15871
G1 X87.215 Y93.298 E133.60820
G1 X84.253 Y93.298 E133.76295
G1 X93.298 Y84.253 E134.43128
G1 X93.298 Y81.291 E134.58603
G1 X81.291 Y93.298 E135.47321
G1 X78.329 Y93.298 E135.62795
G1 X93.298 Y78.329 E136.73398
G1 X91.963 Y76.702 E136.84393
G1 X76.702 Y91.963 E137.97153
G1 X76.702 Y89.001 E138.12627
G1 X89.001 Y76.702 E139.03503
G1 X86.039 Y76.702 E139.18978
G1 X76.702 Y86.039 E139.87969
G1 X76.702 Y83.077 E140.03444
G1 X83.077 Y76.702 E140.50551
G1 X80.116 Y76.702 E140.66025
G1 X76.702 Y80.116 E140.91248
G1 X76.702 Y77.154 E141.06723
G1 X77.154 Y76.702 E141.10061
G1 Z1.200 F7800.000
G1 X93.679 Y93.679 F7800.000
G1 X76.321 Y93.679 E142.00748 F3600.000
G1 X76.321 Y76.321 E142.91434
G1 X93.679 Y76.321 E143.82121
G1 X93.679 Y93.619 E144.72494
G1 X94.307 Y94.307 F7800.000
G1 X75.693 Y94.307 E145.69745 F3600.000
G1 X75.693 Y75.693 E146.66997
G1 X94.307 Y75.693 E147.64249
G1 X94.307 Y94.247 E148.61187
G1 X94.800 Y94.800 F7800.000
G1 X75.200 Y94.800 E149.19382 F1800.000
G1 X75.200 Y75.200 E149.77577
G1 X94.800 Y75.200 E150.35772
G1 X94.800 Y94.740 E150.93788
G1 X94.454 Y94.600 F7800.000
G1 X93.298 Y79.824 F7800.000
G1 X90.176 Y76.702 E151.16854 F4800.000
G1 X87.215 Y76.702 E151.32328
G1 X93.298 Y82.785 E151.77278
G1 X93.298 Y85.747 E151.92752
G1 X84.253 Y76.702 E152.59586
G1 X81.291 Y76.702 E152.75060
G1 X93.298 Y88.709 E153.63778
G1 X93.298 Y91.671 E153.79253
G1 X78.329 Y76.702 E154.89855
G1 X76.702 Y78.037 E155.00850
G1 X91.963 Y93.298 E156.13610
G1 X89.001 Y93.298 E156.29085
G1 X76.702 Y80.999 E157.19961
G1 X76.702 Y83.961 E157.35435
G1 X86.039 Y93.298 E158.04427
G1 X83.077 Y93.298 E158.19901
G1 X76.702 Y86.923 E158.67008
G1 X76.702 Y89.884 E158.82483
G1 X80.116 Y93.298 E159.07705
G1 X77.154 Y93.298 E159.23180
G1 X76.702 Y92.846 E159.26519
G1 Z1.400 F7800.000
G1 X93.679 Y93.679 F7800.000
G1 X76.321 Y93.679 E160.17205 F3600.000
G1 X76.321 Y76.321 E161.07891
G1 X93.679 Y76.321 E161.98578
G1 X93.679 Y93.619 E162.88951
G1 X94.307 Y94.307 F7800.000
G1 X75.693 Y94.307 E163.86203 F3600.000
G1 X75.693 Y75.693 E164.83454
G1 X94.307 Y75.693 E165.80706
G1 X94.307 Y94.247 E166.77644
G1 X94.800 Y94.800 F7800.000
G1 X75.200 Y94.800 E167.35839 F1800.000
G1 X75.200 Y75.200 E167.94034
G1 X94.800 Y75.200 E168.52229
G1 X94.800 Y94.740 E169.10246
G1 X94.454 Y94.600 F7800.000
G1 X90.176 Y93.298 F7800.000
G1 X93.298 Y90.176 E169.33311 F4800.000
G1 X93.298 Y87.215 E169.48786
G1 X87.215 Y93.298 E169.93735
G1 X84.253 Y93.298 E170.09209
G1 X93.298 Y84.253 E170.76043
G1 X93.298 Y81.291 E170.91518
G1 X81.291 Y93.298 E171.80236
G1 X78.329 Y93.298 E171.95710
G1 X93.298 Y78.329 E173.06313
G1 X91.963 Y76.702 E173.17308
G1 X76.702 Y91.963 E174.30068
G1 X76.702 Y89.001 E174.45542
G1 X89.001 Y76.702 E175.36418
G1 X86.039 Y76.702 E175.51892
G1 X76.702 Y86.039 E176.20884
G1 X76.702 Y83.077 E176.36358
G1 X83.077 Y76.702 E176.83466
G1 X80.116 Y76.702 E176.98940
G1 X76.702 Y80.116 E177.24163
G1 X76.702 Y77.154 E177.39637
G1 X77.154 Y76.702 E177.42976
G1 Z1.600 F7800.000
G1 X93.679 Y93.679 F7800.000
G1 X76.321 Y93.679 E178.33662 F3600.000
G1 X76.321 Y76.321 E179.24349
G1 X93.679 Y76.321 E180.15035
G1 X93.679 Y93.619 E181.05408
G1 X94.307 Y94.307 F7800.000
G1 X75.693 Y94.307 E182.02660 F3600.000
G1 X75.693 Y75.693 E182.99912
G1 X94.307 Y75.693 E183.97164
G1 X94.307 Y94.247 E184.94102
G1 X94.800 Y94.800 F7800.000
G1 X75.200 Y94.800 E185.52297 F1800.000
G1 X75.200 Y75.200 E186.10492
G1 X94.800 Y75.200 E186.68687
G1 X94.800 Y94.740 E187.26703
G1 X94.454 Y94.600 F7800.000
G1 X93.298 Y79.824 F7800.000
G1 X90.176 Y76.702 E187.49768 F4800.000
G1 X87.215 Y76.702 E187.65243
G1 X93.298 Y82.785 E188.10192
G1 X93.298 Y85.747 E188.25667
G1 X84.253 Y76.702 E188.92501
G1 X81.291 Y76.702 E189.07975
G1 X93.298 Y88.709 E189.96693
G1 X93.298 Y91.671 E190.12168
G1 X78.329 Y76.702 E191.22770
G1 X76.702 Y78.037 E191.33765
G1 X91.963 Y93.298 E192.46525
G1 X89.001 Y93.298 E192.62000
G1 X76.702 Y80.999 E193.52875
G1 X76.702 Y83.961 E193.68350
G1 X86.039 Y93.298 E194.37341
G1 X83.077 Y93.298 E194.52816
G1 X76.702 Y86.923 E194.99923
G1 X76.702 Y89.884 E195.15397
G1 X80.116 Y93.298 E195.40620
G1 X77.154 Y93.298 E195.56095
G1 X76.702 Y92.846 E195.59433
G1 Z1.800 F7800.000
G1 X93.679 Y93.679 F7800.000
G1 X76.321 Y93.679 E196.50120 F3600.000
G1 X76.321 Y76.321 E197.40806
G1 X93.679 Y76.321 E198.31493
G1 X93.679 Y93.619 E199.21866
G1 X94.307 Y94.307 F7800.000
G1 X75.693 Y94.307 E200.19117 F3600.000
G1 X75.693 Y75.693 E201.16369
G1 X94.307 Y75.693 E202.13621
G1 X94.307 Y94.247 E203.10559
G1 X94.800 Y94.800 F7800.000
G1 X75.200 Y94.800 E203.68754 F1800.000
G1 X75.200 Y75.200 E204.26949
G1 X94.800 Y75.200 E204.85144
G1 X94.800 Y94.740 E205.43161
G1 X94.454 Y94.600 F7800.000
G1 X90.176 Y93.298 F7800.000
G1 X93.298 Y90.176 E205.66226 F4800.000
G1 X93.298 Y87.215 E205.81700
G1 X87.215 Y93.298 E206.26650
G1 X84.253 Y93.298 E206.42124
G1 X93.298 Y84.253 E207.08958
G1 X93.298 Y81.291 E207.24432
G1 X81.291 Y93.298 E208.13150
G1 X78.329 Y93.298 E208.28625
G1 X93.298 Y78.329 E209.39227
G1 X91.963 Y76.702 E209.50223
G1 X76.702 Y91.963 E210.62982
G1 X76.702 Y89.001 E210.78457
G1 X89.001 Y76.702 E211.69333
G1 X86.039 Y76.702 E211.84807
G1 X76.702 Y86.039 E212.53799
G1 X76.702 Y83.077 E212.69273
G1 X83.077 Y76.702 E213.16380
G1 X80.116 Y76.702 E213.31855
G1 X76.702 Y80.116 E213.57078
G1 X76.702 Y77.154 E213.72552
G1 X77.154 Y76.702 E213.75891
G1 Z2.000 F7800.000
G1 X93.679 Y93.679 F7800.000
G1 X76.321 Y93.679 E214.66577 F3600.000
G1 X76.321 Y76.321 E215.57264
G1 X93.679 Y76.321 E216.47950
G1 X93.679 Y93.619 E217.38323
G1 X94.307 Y94.307 F7800.000
G1 X75.693 Y94.307 E218.35575 F3600.000
G1 X75.693 Y75.693 E219.32827
G1 X94.307 Y75.693 E220.30078
G1 X94.307 Y94.247 E221.27017
G1 X94.800 Y94.800 F7800.000
G1 X75.200 Y94.800 E221.85211 F1800.000
G1 X75.200 Y75.200 E222.43406
G1 X94.800 Y75.200 E223.01601
G1 X94.800 Y94.740 E223.59618
G1 X94.454 Y94.600 F7800.000
G1 X93.298 Y79.824 F7800.000
G1 X90.176 Y76.702 E223.82683 F4800.000
G1 X87.215 Y76.702 E223.98158
G1 X93.298 Y82.785 E224.43107
G1 X93.298 Y85.747 E224.58582
G1 X84.253 Y76.702 E225.25415
G1 X81.291 Y76.702 E225.40890
G1 X93.298 Y88.709 E226.29608
G1 X93.298 Y91.671 E226.45082
G1 X78.329 Y76.702 E227.55685
G1 X76.702 Y78.037 E227.66680
G1 X91.963 Y93.298 E228.79440
G1 X89.001 Y93.298 E228.94914
G1 X76.702 Y80.999 E229.85790
G1 X76.702 Y83.961 E230.01265
G1 X86.039 Y93.298 E230.70256
G1 X83.077 Y93.298 E230.85731
G1 X76.702 Y86.923 E231.32838
G1 X76.702 Y89.884 E231.48312
G1 X80.116 Y93.298 E231.73535
G1 X77.154 Y93.298 E231.89010
G1 X76.702 Y92.846 E231.92348
G1 Z2.200 F7800.000
G1 X93.679 Y93.679 F7800.000
G1 X76.321 Y93.679 E232.83035 F3600.000
G1 X76.321 Y76.321 E233.73721
G1 X93.679 Y76.321 E234.64407
G1 X93.679 Y93.619 E235.54780
G1 X94.307 Y94.307 F7800.000
G1 X75.693 Y94.307 E236.52032 F3600.000
G1 X75.693 Y75.693 E237.49284
G1 X94.307 Y75.693 E238.46536
G1 X94.307 Y94.247 E239.43474
G1 X94.800 Y94.800 F7800.000
G1 X75.200 Y94.800 E240.01669 F1800.000
G1 X75.200 Y75.200 E240.59864
G1 X94.800 Y75.200 E241.18059
G1 X94.800 Y94.740 E241.76075
G1 X94.454 Y94.600 F7800.000
G1 X90.176 Y93.298 F7800.000
G1 X93.298 Y90.176 E241.99141 F4800.000
G1 X93.298 Y87.215 E242.14615
G1 X87.215 Y93.298 E242.59564
G1 X84.253 Y93.298 E242.75039
G1 X93.298 Y84.253 E243.41873
G1 X93.298 Y81.291 E243.57347
G1 X81.291 Y93.298 E244.46065
G1 X78.329 Y93.298 E244.61540
G1 X93.298 Y78.329 E245.72142
G1 X91.963 Y76.702 E245.83137
G1 X76.702 Y91.963 E246.95897
G1 X76.702 Y89.001 E247.11372
G1 X89.001 Y76.702 E248.02247
G1 X86.039 Y76.702 E248.17722
G1 X76.702 Y86.039 E248.86713
G1 X76.702 Y83.077 E249.02188
G1 X83.077 Y76.702 E249.49295
G1 X80.116 Y76.702 E249.64770
G1 X76.702 Y80.116 E249.89992
