; generated by Slic3r 1.2.9 on 2020-08-20 at 13:28:52

; external perimeters extrusion width = 0.40mm
; perimeters extrusion width = 0.67mm
; infill extrusion width = 0.67mm
; solid infill extrusion width = 0.67mm
; top infill extrusion width = 0.67mm
; support material extrusion width = 0.40mm

M107
M190 S65 ; set bed temperature
M104 S205 ; set temperature
G28 ; home all axes
G1 Z5 F5000 ; lift nozzle

M109 S205 ; wait for temperature to be reached
G21 ; set units to millimeters
G90 ; use absolute coordinates
M82 ; use absolute distances for extrusion
G92 E0
G1 Z0.400 F7800.000
G1 E-1.50000 F2400.00000
G92 E0
G1 X64.631 Y63.902 F7800.000
G1 E1.50000 F2400.00000
G1 X66.617 Y62.723 E1.77422 F1800.000
G1 X67.857 Y62.384 E1.92690
G1 X81.857 Y59.965 E3.61425
G1 X83.000 Y59.867 E3.75052
G1 X87.000 Y59.867 E4.22558
G1 X88.143 Y59.965 E4.36185
G1 X102.143 Y62.384 E6.04921 F1800.000
G1 X104.317 Y63.162 E6.32343
G1 X106.098 Y64.631 E6.59766
G1 X107.277 Y66.617 E6.87188
G1 X107.616 Y67.857 E7.02455
G1 X110.035 Y81.857 E8.71190
G1 X110.133 Y83.000 E8.84818
G1 X110.133 Y87.000 E9.32324
G1 X110.035 Y88.143 E9.45951
G1 X107.616 Y102.143 E11.14686
G1 X106.838 Y104.317 E11.42108
G1 X105.369 Y106.098 E11.69531
G1 X103.383 Y107.277 E11.96953
G1 X102.143 Y107.616 E12.12221
G1 X88.143 Y110.035 E13.80956
G1 X87.000 Y110.133 E13.94583
G1 X83.000 Y110.133 E14.42089
G1 X81.857 Y110.035 E14.55716
G1 X67.857 Y107.616 E16.24451
G1 X65.683 Y106.838 E16.51874
G1 X63.902 Y105.369 E16.79296
G1 X62.723 Y103.383 E17.06719
G1 X62.384 Y102.143 E17.21986
G1 X59.965 Y88.143 E18.90721
G1 X59.867 Y87.000 E19.04349
G1 X59.867 Y83.000 E19.51855
G1 X59.965 Y81.857 E19.65482
G1 X62.384 Y67.857 E21.34217
G1 X63.162 Y65.683 E21.61639
G1 X64.593 Y63.948 E21.88349
G1 E20.38349 F2400.00000
G92 E0
G1 X99.172 Y99.172 F7800.000
G1 E1.50000 F2400.00000
G1 X70.828 Y99.172 E4.86620 F1800.000
G1 X70.828 Y70.828 E8.23241
G1 X99.172 Y70.828 E11.59861
G1 X99.172 Y99.112 E14.95769
G1 X85.886 Y99.886 F7800.000
G1 X85.886 Y101.486 E15.14772 F1800.000
G1 X84.114 Y101.486 E15.35813
G1 X84.114 Y99.886 E15.54816
G1 X70.114 Y99.886 E17.21087
G1 X70.114 Y85.886 E18.87358
G1 X68.514 Y85.886 E19.06361
G1 X68.514 Y84.114 E19.27402
G1 X70.114 Y84.114 E19.46404
G1 X70.114 Y70.114 E21.12676
G1 X84.114 Y70.114 E22.78947
G1 X84.114 Y68.514 E22.97949
G1 X85.886 Y68.514 E23.18991
G1 X85.886 Y70.114 E23.37993
G1 X99.886 Y70.114 E25.04264
G1 X99.886 Y84.114 E26.70536
G1 X101.486 Y84.114 E26.89538
G1 X101.486 Y85.886 E27.10579
G1 X99.886 Y85.886 E27.29582
G1 X99.886 Y99.886 E28.95853
G1 X85.946 Y99.886 E30.61412
G1 X86.600 Y100.600 F7800.000
G1 X86.600 Y102.200 E30.80414 F1800.000
G1 X83.400 Y102.200 E31.18419
G1 X83.400 Y100.600 E31.37421
G1 X69.400 Y100.600 E33.03693
G1 X69.400 Y86.600 E34.69964
G1 X67.800 Y86.600 E34.88966
G1 X67.800 Y83.400 E35.26971
G1 X69.400 Y83.400 E35.45974
G1 X69.400 Y69.400 E37.12245
G1 X83.400 Y69.400 E38.78516
G1 X83.400 Y67.800 E38.97519
G1 X86.600 Y67.800 E39.35523
G1 X86.600 Y69.400 E39.54526
G1 X100.600 Y69.400 E41.20797
G1 X100.600 Y83.400 E42.87068
G1 X102.200 Y83.400 E43.06071
G1 X102.200 Y86.600 E43.44076
G1 X100.600 Y86.600 E43.63078
G1 X100.600 Y100.600 E45.29349
G1 X86.660 Y100.600 E46.94908
G1 X86.200 Y100.600 F7800.000
G1 X85.000 Y101.129 F7800.000
G1 X85.000 Y99.529 E47.35197 F1800.000
G1 X71.607 Y98.736 F7800.000
G1 X71.264 Y98.393 E47.41036 F1800.000
G1 X71.264 Y97.369 E47.53360
G1 X72.631 Y98.736 E47.76629
G1 X73.654 Y98.736 E47.88953
G1 X71.264 Y96.346 E48.29651
G1 X71.264 Y95.322 E48.41975
G1 X74.678 Y98.736 E49.00102
G1 X75.702 Y98.736 E49.12427
G1 X71.264 Y94.298 E49.87983
G1 X71.264 Y93.274 E50.00308
G1 X76.726 Y98.736 E50.93293
G1 X77.749 Y98.736 E51.05618
G1 X71.264 Y92.251 E52.16033
G1 X71.264 Y91.227 E52.28357
G1 X78.773 Y98.736 E53.56202
G1 X79.797 Y98.736 E53.68526
G1 X71.264 Y90.203 E55.13800
G1 X71.264 Y89.179 E55.26125
G1 X80.821 Y98.736 E56.88828
G1 X81.844 Y98.736 E57.01152
G1 X71.264 Y88.156 E58.81285
G1 X71.264 Y87.132 E58.93609
G1 X82.868 Y98.736 E60.91171
G1 X83.892 Y98.736 E61.03495
G1 X71.264 Y86.108 E63.18487
G1 X71.264 Y85.084 E63.30811
G1 X84.916 Y98.736 E65.63232
G1 X85.939 Y98.736 E65.75556
G1 X71.264 Y84.061 E68.25406
G1 X71.264 Y83.037 E68.37730
G1 X86.963 Y98.736 E71.05009
G1 X87.987 Y98.736 E71.17334
G1 X71.264 Y82.013 E74.02042
G1 X71.264 Y80.989 E74.14367
G1 X89.011 Y98.736 E77.16505
G1 X90.034 Y98.736 E77.28829
G1 X71.264 Y79.966 E80.48397
G1 X71.264 Y78.942 E80.60721
G1 X91.058 Y98.736 E83.97718
G1 X92.082 Y98.736 E84.10042
G1 X71.264 Y77.918 E87.64468
G1 X71.264 Y76.894 E87.76792
G1 X93.106 Y98.736 E91.48648
G1 X94.129 Y98.736 E91.60972
G1 X71.264 Y75.871 E95.50257
G1 X71.264 Y74.847 E95.62581
G1 X95.153 Y98.736 E99.69295
G1 X96.177 Y98.736 E99.81619
G1 X71.264 Y73.823 E104.05763
G1 X71.264 Y72.799 E104.18087
G1 X97.201 Y98.736 E108.59660
G1 X98.224 Y98.736 E108.71984
G1 X71.264 Y71.776 E113.30986
G1 X71.776 Y71.264 E113.39701
G1 X98.736 Y98.224 E117.98703
G1 X98.736 Y97.201 E118.11028
G1 X72.799 Y71.264 E122.52601
G1 X73.823 Y71.264 E122.64925
G1 X98.736 Y96.177 E126.89069
G1 X98.736 Y95.153 E127.01393
G1 X74.847 Y71.264 E131.08107
G1 X75.871 Y71.264 E131.20432
G1 X98.736 Y94.129 E135.09717
G1 X98.736 Y93.106 E135.22041
G1 X76.894 Y71.264 E138.93897
G1 X77.918 Y71.264 E139.06221
G1 X98.736 Y92.082 E142.60648
G1 X98.736 Y91.058 E142.72972
G1 X78.942 Y71.264 E146.09969
G1 X79.966 Y71.264 E146.22293
G1 X98.736 Y90.034 E149.41861
G1 X98.736 Y89.011 E149.54185
G1 X80.989 Y71.264 E152.56324
G1 X82.013 Y71.264 E152.68648
G1 X98.736 Y87.987 E155.53357
G1 X98.736 Y86.963 E155.65681
G1 X83.037 Y71.264 E158.32961
G1 X84.061 Y71.264 E158.45285
G1 X98.736 Y85.939 E160.95135
G1 X98.736 Y84.916 E161.07460
G1 X85.084 Y71.264 E163.39881
G1 X86.108 Y71.264 E163.52205
G1 X98.736 Y83.892 E165.67197
G1 X98.736 Y82.868 E165.79521
G1 X87.132 Y71.264 E167.77083
G1 X88.156 Y71.264 E167.89408
G1 X98.736 Y81.844 E169.69541
G1 X98.736 Y80.821 E169.81865
G1 X89.179 Y71.264 E171.44569
G1 X90.203 Y71.264 E171.56893
G1 X98.736 Y79.797 E173.02167
G1 X98.736 Y78.773 E173.14492
G1 X91.227 Y71.264 E174.42336
G1 X92.251 Y71.264 E174.54661
G1 X98.736 Y77.749 E175.65076
G1 X98.736 Y76.726 E175.77401
G1 X93.274 Y71.264 E176.70387
G1 X94.298 Y71.264 E176.82711
G1 X98.736 Y75.702 E177.58268
G1 X98.736 Y74.678 E177.70593
G1 X95.322 Y71.264 E178.28720
G1 X96.346 Y71.264 E178.41044
G1 X98.736 Y73.654 E178.81743
G1 X98.736 Y72.631 E178.94067
G1 X97.369 Y71.264 E179.17336
G1 X98.393 Y71.264 E179.29660
G1 X98.736 Y71.607 E179.35500
G1 X99.529 Y85.000 F7800.000
G1 X101.129 Y85.000 E179.75788 F1800.000
G1 X85.000 Y70.471 F7800.000
G1 X85.000 Y68.871 E180.16077 F1800.000
G1 X70.471 Y85.000 F7800.000
G1 X68.871 Y85.000 E180.56366 F1800.000
G1 Z0.400 F7800.000
M104 S200 ; set temperature
M140 S60 ; wait for bed temperature to be reached
G1 Z0.600 F7800.000
G1 X85.679 Y99.679 F7800.000
G1 X85.679 Y101.279 E180.64725 F3600.000
G1 X84.321 Y101.279 E180.71819
G1 X84.321 Y99.679 E180.80179
G1 X70.321 Y99.679 E181.53321
G1 X70.321 Y85.679 E182.26464
G1 X68.721 Y85.679 E182.34824
G1 X68.721 Y84.321 E182.41918
G1 X70.321 Y84.321 E182.50277
G1 X70.321 Y70.321 E183.23420
G1 X84.321 Y70.321 E183.96563
G1 X84.321 Y68.721 E184.04922
G1 X85.679 Y68.721 E184.12017
G1 X85.679 Y70.321 E184.20376
G1 X99.679 Y70.321 E184.93519
G1 X99.679 Y84.321 E185.66662
G1 X101.279 Y84.321 E185.75021
G1 X101.279 Y85.679 E185.82116
G1 X99.679 Y85.679 E185.90475
G1 X99.679 Y99.679 E186.63618
G1 X85.739 Y99.679 E187.36447
G1 X86.307 Y100.307 F7800.000
G1 X86.307 Y101.907 E187.44806 F3600.000
G1 X83.693 Y101.907 E187.58466
G1 X83.693 Y100.307 E187.66825
G1 X69.693 Y100.307 E188.39968
G1 X69.693 Y86.307 E189.13111
G1 X68.093 Y86.307 E189.21470
G1 X68.093 Y83.693 E189.35130
G1 X69.693 Y83.693 E189.43490
G1 X69.693 Y69.693 E190.16632
G1 X83.693 Y69.693 E190.89775
G1 X83.693 Y68.093 E190.98134
G1 X86.307 Y68.093 E191.11794
G1 X86.307 Y69.693 E191.20154
G1 X100.307 Y69.693 E191.93296
G1 X100.307 Y83.693 E192.66439
G1 X101.907 Y83.693 E192.74798
G1 X101.907 Y86.307 E192.88458
G1 X100.307 Y86.307 E192.96818
G1 X100.307 Y100.307 E193.69960
G1 X86.367 Y100.307 E194.42790
G1 X86.800 Y100.800 F7800.000
G1 X86.800 Y102.919 E194.49082 F1800.000
G1 X86.400 Y102.919 E194.50269
G1 X86.400 Y102.400 E194.51811
G1 X83.600 Y102.400 E194.60124
G1 X83.600 Y102.919 E194.61665
G1 X83.200 Y102.919 E194.62853
G1 X83.200 Y100.800 E194.69145
G1 X69.200 Y100.800 E195.10713
G1 X69.200 Y86.800 E195.52281
G1 X67.081 Y86.800 E195.58572
G1 X67.081 Y86.400 E195.59760
G1 X67.600 Y86.400 E195.61301
G1 X67.600 Y83.600 E195.69615
G1 X67.081 Y83.600 E195.71156
G1 X67.081 Y83.200 E195.72344
G1 X69.200 Y83.200 E195.78636
G1 X69.200 Y69.200 E196.20203
G1 X83.200 Y69.200 E196.61771
G1 X83.200 Y67.081 E196.68063
G1 X83.600 Y67.081 E196.69251
G1 X83.600 Y67.600 E196.70792
G1 X86.400 Y67.600 E196.79106
G1 X86.400 Y67.081 E196.80647
G1 X86.800 Y67.081 E196.81835
G1 X86.800 Y69.200 E196.88126
G1 X100.800 Y69.200 E197.29694
G1 X100.800 Y83.200 E197.71262
G1 X102.919 Y83.200 E197.77554
G1 X102.919 Y83.600 E197.78742
G1 X102.400 Y83.600 E197.80283
G1 X102.400 Y86.400 E197.88596
G1 X102.919 Y86.400 E197.90138
G1 X102.919 Y86.800 E197.91325
G1 X100.800 Y86.800 E197.97617
G1 X100.800 Y100.800 E198.39185
G1 X86.860 Y100.800 E198.80575
G1 X86.400 Y100.800 F7800.000
G1 X85.000 Y100.965 F7800.000
G1 X85.000 Y99.365 E198.97864 F1200.000
G1 X98.992 Y99.298 F7800.000
G1 X99.298 Y98.992 E199.00153 F1200.000
G1 X99.298 Y98.094 E199.04895
G1 X98.094 Y99.298 E199.13892
G1 X97.195 Y99.298 E199.18634
G1 X99.298 Y97.195 E199.34337
G1 X99.298 Y96.297 E199.39079
G1 X96.297 Y99.298 E199.61488
G1 X95.399 Y99.298 E199.66230
G1 X99.298 Y95.399 E199.95346
G1 X99.298 Y94.501 E200.00089
G1 X94.501 Y99.298 E200.35911
G1 X93.603 Y99.298 E200.40654
G1 X99.298 Y93.603 E200.83183
G1 X99.298 Y92.705 E200.87925
G1 X92.705 Y99.298 E201.37161
G1 X91.807 Y99.298 E201.41904
G1 X99.298 Y91.807 E201.97846
G1 X99.298 Y90.909 E202.02588
G1 X90.909 Y99.298 E202.65238
G1 X90.011 Y99.298 E202.69980
G1 X99.298 Y90.011 E203.39336
G1 X99.298 Y89.113 E203.44078
G1 X89.113 Y99.298 E204.20141
G1 X88.215 Y99.298 E204.24883
G1 X99.298 Y88.215 E205.07652
G1 X99.298 Y87.316 E205.12394
G1 X87.316 Y99.298 E206.01870
G1 X86.418 Y99.298 E206.06613
G1 X99.298 Y86.418 E207.02795
G1 X98.984 Y85.834 E207.06296
G1 X85.834 Y98.984 E208.04494
G1 X84.936 Y98.984 E208.09236
G1 X98.984 Y84.936 E209.14140
G1 X98.984 Y84.038 E209.18882
G1 X84.038 Y98.984 E210.30492
G1 X82.826 Y99.298 E210.37105
G1 X99.298 Y82.826 E211.60114
G1 X99.298 Y81.928 E211.64856
G1 X81.928 Y99.298 E212.94572
G1 X81.030 Y99.298 E212.99314
G1 X99.298 Y81.030 E214.35737
G1 X99.298 Y80.132 E214.40479
G1 X80.132 Y99.298 E215.83608
G1 X79.234 Y99.298 E215.88350
G1 X99.298 Y79.234 E217.38186
G1 X99.298 Y78.336 E217.42928
G1 X78.336 Y99.298 E218.99471
G1 X77.437 Y99.298 E219.04213
G1 X99.298 Y77.437 E220.67462
G1 X99.298 Y76.539 E220.72204
G1 X76.539 Y99.298 E222.42160
G1 X75.641 Y99.298 E222.46902
G1 X99.298 Y75.641 E224.23564
G1 X99.298 Y74.743 E224.28306
G1 X74.743 Y99.298 E226.11675
G1 X73.845 Y99.298 E226.16418
G1 X99.298 Y73.845 E228.06493
G1 X99.298 Y72.947 E228.11235
G1 X72.947 Y99.298 E230.08018
G1 X72.049 Y99.298 E230.12760
G1 X99.298 Y72.049 E232.16249
G1 X99.298 Y71.151 E232.20991
G1 X71.151 Y99.298 E234.31187
G1 X70.702 Y98.849 E234.34540
G1 X98.849 Y70.702 E236.44735
G1 X97.951 Y70.702 E236.49477
G1 X70.702 Y97.951 E238.52966
G1 X70.702 Y97.053 E238.57708
G1 X97.053 Y70.702 E240.54490
G1 X96.155 Y70.702 E240.59232
G1 X70.702 Y96.155 E242.49307
G1 X70.702 Y95.257 E242.54050
G1 X95.257 Y70.702 E244.37418
G1 X94.359 Y70.702 E244.42160
G1 X70.702 Y94.359 E246.18822
G1 X70.702 Y93.461 E246.23564
G1 X93.461 Y70.702 E247.93520
G1 X92.563 Y70.702 E247.98262
G1 X70.702 Y92.563 E249.61511
G1 X70.702 Y91.664 E249.66253
G1 X91.664 Y70.702 E251.22795
G1 X90.766 Y70.702 E251.27537
G1 X70.702 Y90.766 E252.77372
G1 X70.702 Y89.868 E252.82115
G1 X89.868 Y70.702 E254.25243
G1 X88.970 Y70.702 E254.29986
G1 X70.702 Y88.970 E255.66408
G1 X70.702 Y88.072 E255.71150
G1 X88.072 Y70.702 E257.00865
G1 X87.174 Y70.702 E257.05608
G1 X70.702 Y87.174 E258.28616
G1 X71.016 Y85.962 E258.35229
G1 X85.962 Y71.016 E259.46839
G1 X85.064 Y71.016 E259.51581
G1 X71.016 Y85.064 E260.56485
G1 X71.016 Y84.166 E260.61227
G1 X84.166 Y71.016 E261.59424
G1 X83.582 Y70.702 E261.62925
G1 X70.702 Y83.582 E262.59107
G1 X70.702 Y82.683 E262.63850
G1 X82.683 Y70.702 E263.53325
G1 X81.785 Y70.702 E263.58067
G1 X70.702 Y81.785 E264.40836
G1 X70.702 Y80.887 E264.45578
G1 X80.887 Y70.702 E265.21641
G1 X79.989 Y70.702 E265.26383
G1 X70.702 Y79.989 E265.95738
G1 X70.702 Y79.091 E266.00481
G1 X79.091 Y70.702 E266.63130
G1 X78.193 Y70.702 E266.67872
G1 X70.702 Y78.193 E267.23814
G1 X70.702 Y77.295 E267.28556
G1 X77.295 Y70.702 E267.77792
G1 X76.397 Y70.702 E267.82534
G1 X70.702 Y76.397 E268.25063
G1 X70.702 Y75.499 E268.29805
G1 X75.499 Y70.702 E268.65628
G1 X74.601 Y70.702 E268.70370
G1 X70.702 Y74.601 E268.99486
G1 X70.702 Y73.703 E269.04228
G1 X73.703 Y70.702 E269.26637
G1 X72.804 Y70.702 E269.31379
G1 X70.702 Y72.804 E269.47082
G1 X70.702 Y71.906 E269.51824
G1 X71.906 Y70.702 E269.60820
G1 X71.008 Y70.702 E269.65562
G1 X70.702 Y71.008 E269.67851
G1 X70.635 Y85.000 F7800.000
G1 X69.035 Y85.000 E269.85140 F1200.000
G1 X85.000 Y70.635 F7800.000
G1 X85.000 Y69.035 E270.02429 F1200.000
G1 X99.365 Y85.000 F7800.000
G1 X100.965 Y85.000 E270.19719 F1200.000
G1 Z0.800 F7800.000
G1 X85.679 Y99.679 F7800.000
G1 X85.679 Y101.279 E270.28078 F3600.000
G1 X84.321 Y101.279 E270.35172
G1 X84.321 Y99.679 E270.43532
G1 X70.321 Y99.679 E271.16674
G1 X70.321 Y85.679 E271.89817
G1 X68.721 Y85.679 E271.98176
G1 X68.721 Y84.321 E272.05271
G1 X70.321 Y84.321 E272.13630
G1 X70.321 Y70.321 E272.86773
G1 X84.321 Y70.321 E273.59916
G1 X84.321 Y68.721 E273.68275
G1 X85.679 Y68.721 E273.75370
G1 X85.679 Y70.321 E273.83729
G1 X99.679 Y70.321 E274.56872
G1 X99.679 Y84.321 E275.30015
G1 X101.279 Y84.321 E275.38374
G1 X101.279 Y85.679 E275.45469
G1 X99.679 Y85.679 E275.53828
G1 X99.679 Y99.679 E276.26971
G1 X85.739 Y99.679 E276.99800
G1 X86.307 Y100.307 F7800.000
G1 X86.307 Y101.907 E277.08159 F3600.000
G1 X83.693 Y101.907 E277.21819
G1 X83.693 Y100.307 E277.30178
G1 X69.693 Y100.307 E278.03321
G1 X69.693 Y86.307 E278.76464
G1 X68.093 Y86.307 E278.84823
G1 X68.093 Y83.693 E278.98483
G1 X69.693 Y83.693 E279.06842
G1 X69.693 Y69.693 E279.79985
G1 X83.693 Y69.693 E280.53128
G1 X83.693 Y68.093 E280.61487
G1 X86.307 Y68.093 E280.75147
G1 X86.307 Y69.693 E280.83507
G1 X100.307 Y69.693 E281.56649
G1 X100.307 Y83.693 E282.29792
G1 X101.907 Y83.693 E282.38151
G1 X101.907 Y86.307 E282.51811
G1 X100.307 Y86.307 E282.60171
G1 X100.307 Y100.307 E283.33313
G1 X86.367 Y100.307 E284.06143
G1 X86.800 Y100.800 F7800.000
G1 X86.800 Y102.719 E284.11841 F1800.000
G1 X86.400 Y102.719 E284.13029
G1 X86.400 Y102.400 E284.13976
G1 X83.600 Y102.400 E284.22289
G1 X83.600 Y102.719 E284.23237
G1 X83.200 Y102.719 E284.24425
G1 X83.200 Y100.800 E284.30123
G1 X69.200 Y100.800 E284.71690
G1 X69.200 Y86.800 E285.13258
G1 X67.281 Y86.800 E285.18956
G1 X67.281 Y86.400 E285.20144
G1 X67.600 Y86.400 E285.21091
G1 X67.600 Y83.600 E285.29405
G1 X67.281 Y83.600 E285.30352
G1 X67.281 Y83.200 E285.31540
G1 X69.200 Y83.200 E285.37238
G1 X69.200 Y69.200 E285.78806
G1 X83.200 Y69.200 E286.20374
G1 X83.200 Y67.281 E286.26072
G1 X83.600 Y67.281 E286.27259
G1 X83.600 Y67.600 E286.28207
G1 X86.400 Y67.600 E286.36520
G1 X86.400 Y67.281 E286.37468
G1 X86.800 Y67.281 E286.38655
G1 X86.800 Y69.200 E286.44353
G1 X100.800 Y69.200 E286.85921
G1 X100.800 Y83.200 E287.27489
G1 X102.719 Y83.200 E287.33187
G1 X102.719 Y83.600 E287.34375
G1 X102.400 Y83.600 E287.35322
G1 X102.400 Y86.400 E287.43636
G1 X102.719 Y86.400 E287.44583
G1 X102.719 Y86.800 E287.45771
G1 X100.800 Y86.800 E287.51469
G1 X100.800 Y100.800 E287.93037
G1 X86.860 Y100.800 E288.34426
G1 X86.400 Y100.800 F7800.000
G1 X85.000 Y100.965 F7800.000
G1 X85.000 Y99.365 E288.51715 F1200.000
